; generated by Slic3r 1.3.1-dev (Build 24fc045) on 2023-07-04 at 12:58:26

; Print Config Notes: 
; TJH N0.4 S100
; 
; Filament notes: 
; Change log
; 
; v04->05
; Problem seperation at 03 layer height
; solution: rise temp to 210
; 
; v03->04
; problem: tail overhang was sloppy- not present in V01
; solution: cooling fan set to 100% 
; 
; 
; v02->03
; problem: slight layer sepration at top layers[SOLVED with these settings]
; 
; solution
; raised printing temp to 200 (from 190)
; cooling can set to half value (Max %50)
; 
; v01 -> v02
; problem: layer sepration at top layers
; 
; solution
; Removed cooling fan 
; [unchecked] cooling->enable auto cooling
; 
; v5->v6
; increased temp 215->225 layer seperation
; extrusion multiplier 1->1.1 
; 
; 
; 
; external perimeters extrusion width = 0.44mm (11.27mm^3/s)
; perimeters extrusion width = 0.48mm (12.57mm^3/s)
; infill extrusion width = 0.48mm (12.57mm^3/s)
; solid infill extrusion width = 0.48mm (12.57mm^3/s)
; top infill extrusion width = 0.48mm (10.05mm^3/s)

M107
G92 E0
M104 S220 ; set extruder temp
M140 S60 ; set bed temp
M190 S60 ; wait for bed temp
M109 S220 ; wait for extruder temp

G92 Z40; printer always finishes here
G28 X Y;Home
G1 X 20 F1000 ;
G1 Y 20 F1000 ;
G1 Z0.01 F400 ;
;Prime the extruder
G92 E0  ;reset extruder original: G1 F200 E3
G1 E3 F200 ;Prime extruder 3mm
G92 E0
G1 Z0 F400

; Filament gcode

G21 ; set units to millimeters
G90 ; use absolute coordinates
M82 ; use absolute distances for extrusion
G92 E0
G1 Z0.200 F15000.000
G1 E-2.00000 F1200.00000
G92 E0
G1 X69.432 Y68.840 F15000.000
G1 E2.00000 F1200.00000
G1 F2880.000
G1 X71.039 Y68.044 E2.05325
G1 X72.000 Y67.929 E2.08198
G1 X138.000 Y67.929 E4.04161
G1 X139.750 Y68.324 E4.09486
G1 X141.160 Y69.432 E4.14811
G1 X141.956 Y71.039 E4.20137
G1 X142.071 Y72.000 E4.23010
G1 X142.071 Y118.000 E5.59589
G1 X141.676 Y119.750 E5.64915
G1 X140.568 Y121.160 E5.70240
G1 X138.961 Y121.956 E5.75566
G1 X138.000 Y122.071 E5.78438
G1 X72.000 Y122.071 E7.74401
G1 X70.250 Y121.676 E7.79726
G1 X68.840 Y120.568 E7.85052
G1 X68.044 Y118.961 E7.90377
G1 X67.929 Y118.000 E7.93250
G1 X67.929 Y72.000 E9.29830
G1 X68.324 Y70.250 E9.35155
G1 X69.395 Y68.888 E9.40303
G1 X69.780 Y69.022 F15000.000
G1 F2880.000
G1 X72.000 Y68.286 E9.47246
G1 X138.000 Y68.286 E11.43208
G1 X139.666 Y68.680 E11.48292
G1 X140.978 Y69.780 E11.53375
G1 X141.714 Y72.000 E11.60318
G1 X141.714 Y118.000 E12.96898
G1 X141.320 Y119.666 E13.01982
G1 X140.220 Y120.978 E13.07065
G1 X138.000 Y121.714 E13.14008
G1 X72.000 Y121.714 E15.09971
G1 X70.334 Y121.320 E15.15054
G1 X69.022 Y120.220 E15.20138
G1 X68.286 Y118.000 E15.27081
G1 X68.286 Y72.000 E16.63661
G1 X68.680 Y70.334 E16.68744
G1 X69.742 Y69.068 E16.73650
G1 X70.127 Y69.214 F15000.000
G1 F2880.000
G1 X72.000 Y68.643 E16.79465
G1 X138.000 Y68.643 E18.75428
G1 X139.578 Y69.037 E18.80257
G1 X140.786 Y70.127 E18.85087
G1 X141.357 Y72.000 E18.90902
G1 X141.357 Y118.000 E20.27482
G1 X140.963 Y119.578 E20.32311
G1 X139.873 Y120.786 E20.37141
G1 X138.000 Y121.357 E20.42956
G1 X72.000 Y121.357 E22.38919
G1 X70.422 Y120.963 E22.43748
G1 X69.214 Y119.873 E22.48577
G1 X68.643 Y118.000 E22.54393
G1 X68.643 Y72.000 E23.90973
G1 X69.037 Y70.422 E23.95802
G1 X70.086 Y69.259 E24.00453
G1 E22.00453 F1200.00000
G92 E0
G1 X135.268 Y110.742 F15000.000
G1 E2.00000 F1200.00000
G1 F4800.000
G1 X134.907 Y111.004 E2.01327
G1 X134.515 Y111.220 E2.02653
G1 X134.100 Y111.384 E2.03980
G1 X133.667 Y111.495 E2.05307
G1 X133.223 Y111.551 E2.06634
G1 X132.777 Y111.551 E2.07960
G1 X132.333 Y111.495 E2.09287
G1 X131.900 Y111.384 E2.10614
G1 X131.485 Y111.220 E2.11941
G1 X131.093 Y111.004 E2.13267
G1 X130.732 Y110.742 E2.14594
G1 X130.406 Y110.436 E2.15921
G1 X130.121 Y110.091 E2.17247
G1 X129.882 Y109.714 E2.18574
G1 X129.692 Y109.310 E2.19901
G1 X129.554 Y108.885 E2.21228
G1 X129.470 Y108.446 E2.22554
G1 X129.442 Y108.000 E2.23881
G1 X129.470 Y107.554 E2.25208
G1 X129.554 Y107.115 E2.26535
G1 X129.692 Y106.690 E2.27861
G1 X129.882 Y106.286 E2.29188
G1 X130.121 Y105.909 E2.30515
G1 X130.406 Y105.564 E2.31841
G1 X130.732 Y105.258 E2.33168
G1 X131.093 Y104.996 E2.34495
G1 X131.485 Y104.780 E2.35822
G1 X131.900 Y104.616 E2.37148
G1 X132.333 Y104.505 E2.38475
G1 X132.777 Y104.449 E2.39802
G1 X133.223 Y104.449 E2.41129
G1 X133.667 Y104.505 E2.42455
G1 X134.100 Y104.616 E2.43782
G1 X134.515 Y104.780 E2.45109
G1 X134.907 Y104.996 E2.46435
G1 X135.268 Y105.258 E2.47762
G1 X135.594 Y105.564 E2.49089
G1 X135.879 Y105.909 E2.50416
G1 X136.118 Y106.286 E2.51742
G1 X136.308 Y106.690 E2.53069
G1 X136.446 Y107.115 E2.54396
G1 X136.530 Y107.554 E2.55722
G1 X136.558 Y108.000 E2.57049
G1 X136.530 Y108.446 E2.58376
G1 X136.446 Y108.885 E2.59703
G1 X136.308 Y109.310 E2.61029
G1 X136.118 Y109.714 E2.62356
G1 X135.879 Y110.091 E2.63683
G1 X135.594 Y110.436 E2.65010
G1 X135.312 Y110.701 E2.66158
G1 X135.040 Y110.466 F15000.000
G1 F4800.000
G1 X134.715 Y110.702 E2.67351
G1 X134.363 Y110.896 E2.68545
G1 X133.989 Y111.044 E2.69738
G1 X133.600 Y111.144 E2.70931
G1 X133.201 Y111.194 E2.72125
G1 X132.799 Y111.194 E2.73318
G1 X132.400 Y111.144 E2.74511
G1 X132.011 Y111.044 E2.75705
G1 X131.637 Y110.896 E2.76898
G1 X131.285 Y110.702 E2.78091
G1 X130.960 Y110.466 E2.79285
G1 X130.667 Y110.191 E2.80478
G1 X130.411 Y109.881 E2.81671
G1 X130.195 Y109.542 E2.82865
G1 X130.024 Y109.178 E2.84058
G1 X129.900 Y108.796 E2.85251
G1 X129.825 Y108.401 E2.86445
G1 X129.800 Y108.000 E2.87638
G1 X129.825 Y107.599 E2.88831
G1 X129.900 Y107.204 E2.90025
G1 X130.024 Y106.822 E2.91218
G1 X130.195 Y106.458 E2.92411
G1 X130.411 Y106.119 E2.93605
G1 X130.667 Y105.809 E2.94798
G1 X130.960 Y105.534 E2.95991
G1 X131.285 Y105.298 E2.97184
G1 X131.637 Y105.104 E2.98378
G1 X132.011 Y104.956 E2.99571
G1 X132.400 Y104.856 E3.00764
G1 X132.799 Y104.806 E3.01958
G1 X133.201 Y104.806 E3.03151
G1 X133.600 Y104.856 E3.04344
G1 X133.989 Y104.956 E3.05538
G1 X134.363 Y105.104 E3.06731
G1 X134.715 Y105.298 E3.07924
G1 X135.040 Y105.534 E3.09118
G1 X135.333 Y105.809 E3.10311
G1 X135.589 Y106.119 E3.11504
G1 X135.805 Y106.458 E3.12698
G1 X135.976 Y106.822 E3.13891
G1 X136.100 Y107.204 E3.15084
G1 X136.175 Y107.599 E3.16278
G1 X136.200 Y108.000 E3.17471
G1 X136.175 Y108.401 E3.18664
G1 X136.100 Y108.796 E3.19858
G1 X135.976 Y109.178 E3.21051
G1 X135.805 Y109.542 E3.22244
G1 X135.589 Y109.881 E3.23438
G1 X135.333 Y110.191 E3.24631
G1 X135.084 Y110.425 E3.25646
G1 X135.040 Y110.466 F15000.000
G1 E1.25646 F1200.00000
G92 E0
G1 X137.086 Y108.474 F15000.000
G1 E2.00000 F1200.00000
G1 F4800.000
G1 X137.086 Y117.086 E2.25569
G1 X108.914 Y117.086 E3.09215
G1 X108.914 Y108.474 E3.34784
G1 X109.108 Y108.456 E3.35363
G1 X109.207 Y108.974 E3.36928
G1 X109.359 Y109.442 E3.38389
G1 X109.568 Y109.887 E3.39849
G1 X109.832 Y110.302 E3.41309
G1 X110.145 Y110.681 E3.42769
G1 X110.504 Y111.017 E3.44229
G1 X110.902 Y111.306 E3.45689
G1 X111.333 Y111.543 E3.47149
G1 X111.790 Y111.724 E3.48609
G1 X112.266 Y111.847 E3.50070
G1 X112.754 Y111.908 E3.51530
G1 X113.246 Y111.908 E3.52990
G1 X113.734 Y111.847 E3.54450
G1 X114.210 Y111.724 E3.55910
G1 X114.667 Y111.543 E3.57370
G1 X115.098 Y111.306 E3.58830
G1 X115.496 Y111.017 E3.60291
G1 X115.855 Y110.681 E3.61751
G1 X116.168 Y110.302 E3.63211
G1 X116.432 Y109.887 E3.64671
G1 X116.641 Y109.442 E3.66131
G1 X116.793 Y108.974 E3.67591
G1 X116.885 Y108.491 E3.69051
G1 X116.916 Y108.000 E3.70511
G1 X116.885 Y107.509 E3.71972
G1 X116.793 Y107.026 E3.73432
G1 X116.641 Y106.558 E3.74892
G1 X116.432 Y106.113 E3.76352
G1 X116.168 Y105.698 E3.77812
G1 X115.855 Y105.319 E3.79272
G1 X115.496 Y104.983 E3.80732
G1 X115.098 Y104.694 E3.82192
G1 X114.667 Y104.457 E3.83653
G1 X114.210 Y104.276 E3.85113
G1 X113.734 Y104.153 E3.86573
G1 X113.246 Y104.092 E3.88033
G1 X112.754 Y104.092 E3.89493
G1 X112.266 Y104.153 E3.90953
G1 X111.790 Y104.276 E3.92413
G1 X111.333 Y104.457 E3.93874
G1 X110.902 Y104.694 E3.95334
G1 X110.504 Y104.983 E3.96794
G1 X110.145 Y105.319 E3.98254
G1 X109.832 Y105.698 E3.99714
G1 X109.568 Y106.113 E4.01174
G1 X109.359 Y106.558 E4.02634
G1 X109.207 Y107.026 E4.04094
G1 X109.108 Y107.544 E4.05660
G1 X108.914 Y107.526 E4.06239
G1 X108.914 Y98.914 E4.31808
G1 X137.086 Y98.914 E5.15454
G1 X137.086 Y107.526 E5.41023
G1 X136.892 Y107.544 E5.41602
G1 X136.793 Y107.026 E5.43168
G1 X136.641 Y106.558 E5.44628
G1 X136.432 Y106.113 E5.46088
G1 X136.168 Y105.698 E5.47548
G1 X135.855 Y105.319 E5.49008
G1 X135.496 Y104.983 E5.50468
G1 X135.098 Y104.694 E5.51928
G1 X134.667 Y104.457 E5.53389
G1 X134.210 Y104.276 E5.54849
G1 X133.734 Y104.153 E5.56309
G1 X133.246 Y104.092 E5.57769
G1 X132.754 Y104.092 E5.59229
G1 X132.266 Y104.153 E5.60689
G1 X131.790 Y104.276 E5.62149
G1 X131.333 Y104.457 E5.63609
G1 X130.902 Y104.694 E5.65070
G1 X130.504 Y104.983 E5.66530
G1 X130.145 Y105.319 E5.67990
G1 X129.832 Y105.698 E5.69450
G1 X129.568 Y106.113 E5.70910
G1 X129.359 Y106.558 E5.72370
G1 X129.207 Y107.026 E5.73830
G1 X129.115 Y107.509 E5.75290
G1 X129.084 Y108.000 E5.76751
G1 X129.115 Y108.491 E5.78211
G1 X129.207 Y108.974 E5.79671
G1 X129.359 Y109.442 E5.81131
G1 X129.568 Y109.887 E5.82591
G1 X129.832 Y110.302 E5.84051
G1 X130.145 Y110.681 E5.85511
G1 X130.504 Y111.017 E5.86972
G1 X130.902 Y111.306 E5.88432
G1 X131.333 Y111.543 E5.89892
G1 X131.790 Y111.724 E5.91352
G1 X132.266 Y111.847 E5.92812
G1 X132.754 Y111.908 E5.94272
G1 X133.246 Y111.908 E5.95732
G1 X133.734 Y111.847 E5.97192
G1 X134.210 Y111.724 E5.98653
G1 X134.667 Y111.543 E6.00113
G1 X135.098 Y111.306 E6.01573
G1 X135.496 Y111.017 E6.03033
G1 X135.855 Y110.681 E6.04493
G1 X136.168 Y110.302 E6.05953
G1 X136.432 Y109.887 E6.07413
G1 X136.641 Y109.442 E6.08874
G1 X136.793 Y108.974 E6.10334
G1 X136.892 Y108.456 E6.11900
G1 X137.026 Y108.469 E6.12300
G1 E4.12300 F1200.00000
G92 E0
G1 X116.558 Y108.000 F15000.000
G1 E2.00000 F1200.00000
G1 F4800.000
G1 X116.530 Y108.446 E2.01327
G1 X116.446 Y108.885 E2.02653
G1 X116.308 Y109.310 E2.03980
G1 X116.118 Y109.714 E2.05307
G1 X115.879 Y110.091 E2.06634
G1 X115.594 Y110.436 E2.07960
G1 X115.268 Y110.742 E2.09287
G1 X114.907 Y111.004 E2.10614
G1 X114.515 Y111.220 E2.11941
G1 X114.100 Y111.384 E2.13267
G1 X113.667 Y111.495 E2.14594
G1 X113.223 Y111.551 E2.15921
G1 X112.777 Y111.551 E2.17247
G1 X112.333 Y111.495 E2.18574
G1 X111.900 Y111.384 E2.19901
G1 X111.485 Y111.220 E2.21228
G1 X111.093 Y111.004 E2.22554
G1 X110.732 Y110.742 E2.23881
G1 X110.406 Y110.436 E2.25208
G1 X110.121 Y110.091 E2.26535
G1 X109.882 Y109.714 E2.27861
G1 X109.692 Y109.310 E2.29188
G1 X109.554 Y108.885 E2.30515
G1 X109.470 Y108.446 E2.31841
G1 X109.442 Y108.000 E2.33168
G1 X109.470 Y107.554 E2.34495
G1 X109.554 Y107.115 E2.35822
G1 X109.692 Y106.690 E2.37148
G1 X109.882 Y106.286 E2.38475
G1 X110.121 Y105.909 E2.39802
G1 X110.406 Y105.564 E2.41129
G1 X110.732 Y105.258 E2.42455
G1 X111.093 Y104.996 E2.43782
G1 X111.485 Y104.780 E2.45109
G1 X111.900 Y104.616 E2.46435
G1 X112.333 Y104.505 E2.47762
G1 X112.777 Y104.449 E2.49089
G1 X113.223 Y104.449 E2.50416
G1 X113.667 Y104.505 E2.51742
G1 X114.100 Y104.616 E2.53069
G1 X114.515 Y104.780 E2.54396
G1 X114.907 Y104.996 E2.55722
G1 X115.268 Y105.258 E2.57049
G1 X115.594 Y105.564 E2.58376
G1 X115.879 Y105.909 E2.59703
G1 X116.118 Y106.286 E2.61029
G1 X116.308 Y106.690 E2.62356
G1 X116.446 Y107.115 E2.63683
G1 X116.530 Y107.554 E2.65010
G1 X116.554 Y107.940 E2.66158
G1 X116.200 Y108.000 F15000.000
G1 F4800.000
G1 X116.175 Y108.401 E2.67351
G1 X116.100 Y108.796 E2.68545
G1 X115.976 Y109.178 E2.69738
G1 X115.805 Y109.542 E2.70931
G1 X115.589 Y109.881 E2.72125
G1 X115.333 Y110.191 E2.73318
G1 X115.040 Y110.466 E2.74511
G1 X114.715 Y110.702 E2.75705
G1 X114.363 Y110.896 E2.76898
G1 X113.989 Y111.044 E2.78091
G1 X113.600 Y111.144 E2.79285
G1 X113.201 Y111.194 E2.80478
G1 X112.799 Y111.194 E2.81671
G1 X112.400 Y111.144 E2.82865
G1 X112.011 Y111.044 E2.84058
G1 X111.637 Y110.896 E2.85251
G1 X111.285 Y110.702 E2.86445
G1 X110.960 Y110.466 E2.87638
G1 X110.667 Y110.191 E2.88831
G1 X110.411 Y109.881 E2.90025
G1 X110.195 Y109.542 E2.91218
G1 X110.024 Y109.178 E2.92411
G1 X109.900 Y108.796 E2.93604
G1 X109.825 Y108.401 E2.94798
G1 X109.800 Y108.000 E2.95991
G1 X109.825 Y107.599 E2.97184
G1 X109.900 Y107.204 E2.98378
G1 X110.024 Y106.822 E2.99571
G1 X110.195 Y106.458 E3.00764
G1 X110.411 Y106.119 E3.01958
G1 X110.667 Y105.809 E3.03151
G1 X110.960 Y105.534 E3.04344
G1 X111.285 Y105.298 E3.05538
G1 X111.637 Y105.104 E3.06731
G1 X112.011 Y104.956 E3.07924
G1 X112.400 Y104.856 E3.09118
G1 X112.799 Y104.806 E3.10311
G1 X113.201 Y104.806 E3.11504
G1 X113.600 Y104.856 E3.12698
G1 X113.989 Y104.956 E3.13891
G1 X114.363 Y105.104 E3.15084
G1 X114.715 Y105.298 E3.16278
G1 X115.040 Y105.534 E3.17471
G1 X115.333 Y105.809 E3.18664
G1 X115.589 Y106.119 E3.19858
G1 X115.805 Y106.458 E3.21051
G1 X115.976 Y106.822 E3.22244
G1 X116.100 Y107.204 E3.23437
G1 X116.175 Y107.599 E3.24631
G1 X116.197 Y107.940 E3.25646
G1 X116.200 Y108.000 F15000.000
G1 E1.25646 F1200.00000
G92 E0
G1 X108.557 Y98.557 F15000.000
G1 E2.00000 F1200.00000
G1 F4800.000
G1 X137.443 Y98.557 E2.85766
G1 X137.443 Y117.443 E3.41840
G1 X108.557 Y117.443 E4.27606
G1 X108.557 Y98.617 E4.83502
G1 X108.200 Y98.200 F15000.000
G1 F4800.000
G1 X137.800 Y98.200 E5.71389
G1 X137.800 Y117.800 E6.29584
G1 X108.200 Y117.800 E7.17470
G1 X108.200 Y98.260 E7.75487
G1 X108.592 Y98.277 F15000.000
G1 E5.75487 F1200.00000
G92 E0
G1 X109.271 Y105.813 F15000.000
G1 E2.00000 F1200.00000
G1 F4800.000
G1 X109.113 Y106.673 E2.00451
G1 E0.00451 F1200.00000
G92 E0
G1 X109.113 Y109.327 F15000.000
G1 E2.00000 F1200.00000
G1 F4800.000
G1 X109.271 Y110.187 E2.00451
G1 X109.506 Y110.775 F15000.000
G1 F4800.000
G1 X109.396 Y110.639 E2.00977
G1 X109.132 Y110.689 E2.01783
G1 X109.132 Y111.149 E2.03163
G1 X109.784 Y110.498 E2.05930
G1 X110.015 Y110.777 E2.07018
G1 X109.132 Y111.660 E2.10765
G1 X109.132 Y112.170 E2.12296
G1 X110.277 Y111.025 E2.17156
G1 X110.556 Y111.257 E2.18244
G1 X109.132 Y112.681 E2.24286
G1 X109.132 Y113.191 E2.25817
G1 X110.852 Y111.471 E2.33116
G1 X111.181 Y111.652 E2.34244
G1 X109.132 Y113.701 E2.42940
G1 X109.132 Y114.212 E2.44471
G1 X111.532 Y111.812 E2.54654
G1 X111.906 Y111.948 E2.55850
G1 X109.132 Y114.722 E2.67622
G1 X109.132 Y115.233 E2.69154
G1 X112.312 Y112.053 E2.82649
G1 X112.763 Y112.113 E2.84012
G1 X109.132 Y115.743 E2.99419
G1 X109.132 Y116.253 E3.00950
G1 X113.259 Y112.126 E3.18465
G1 X113.407 Y112.126 E3.18909
G1 X113.822 Y112.074 E3.20163
G1 X109.132 Y116.764 E3.40066
G1 X109.132 Y116.868 E3.40378
G1 X109.539 Y116.868 E3.41598
G1 X114.495 Y111.912 E3.62631
G1 X114.959 Y111.728 E3.64128
G1 X115.496 Y111.420 E3.65987
G1 X110.049 Y116.868 E3.89105
G1 E1.89105 F1200.00000
G92 E0
G1 X117.705 Y116.868 F15000.000
G1 E2.00000 F1200.00000
G1 F4800.000
G1 X135.440 Y99.132 E2.75268
G1 X134.930 Y99.132 E2.76800
G1 X117.195 Y116.868 E3.52067
G1 X116.684 Y116.868 E3.53599
G1 X134.420 Y99.132 E4.28867
G1 X133.909 Y99.132 E4.30399
G1 X116.174 Y116.868 E5.05666
G1 X115.664 Y116.868 E5.07198
G1 X133.399 Y99.132 E5.82466
G1 X132.888 Y99.132 E5.83998
G1 X115.153 Y116.868 E6.59266
G1 X114.643 Y116.868 E6.60797
G1 X132.378 Y99.132 E7.36065
G1 X131.868 Y99.132 E7.37597
G1 X114.132 Y116.868 E8.12865
G1 X113.622 Y116.868 E8.14396
G1 X131.357 Y99.132 E8.89664
G1 X130.847 Y99.132 E8.91196
G1 X113.112 Y116.868 E9.66464
G1 X112.601 Y116.868 E9.67995
G1 X130.337 Y99.132 E10.43263
G1 X129.826 Y99.132 E10.44795
G1 X112.091 Y116.868 E11.20063
G1 X111.580 Y116.868 E11.21594
G1 X129.316 Y99.132 E11.96862
G1 X128.805 Y99.132 E11.98394
G1 X111.070 Y116.868 E12.73662
G1 X110.560 Y116.868 E12.75193
G1 X128.295 Y99.132 E13.50461
G1 X127.785 Y99.132 E13.51993
G1 X116.410 Y110.507 E14.00265
G1 X116.606 Y110.198 E14.01363
G1 X116.835 Y109.712 E14.02974
G1 X116.902 Y109.504 E14.03630
G1 X127.274 Y99.132 E14.47648
G1 X126.764 Y99.132 E14.49179
G1 X117.073 Y108.823 E14.90307
G1 X117.101 Y108.675 E14.90762
G1 X117.127 Y108.258 E14.92013
G1 X126.253 Y99.132 E15.30744
G1 X125.743 Y99.132 E15.32275
G1 X117.111 Y107.764 E15.68908
G1 X117.101 Y107.603 E15.69391
