; generated by Slic3r 1.3.1-dev (Build 24fc045) on 2023-08-28 at 12:43:56

; Print Config Notes: 
; TJH N0.4 S100
; 
; Filament notes: 
; Change log
; 
; v04->05
; Problem seperation at 03 layer height
; solution: rise temp to 210
; 
; v03->04
; problem: tail overhang was sloppy- not present in V01
; solution: cooling fan set to 100% 
; 
; 
; v02->03
; problem: slight layer sepration at top layers[SOLVED with these settings]
; 
; solution
; raised printing temp to 200 (from 190)
; cooling can set to half value (Max %50)
; 
; v01 -> v02
; problem: layer sepration at top layers
; 
; solution
; Removed cooling fan 
; [unchecked] cooling->enable auto cooling
; 
; v5->v6
; increased temp 215->225 layer seperation
; extrusion multiplier 1->1.1 
; 
; 
; 
; external perimeters extrusion width = 0.44mm (11.27mm^3/s)
; perimeters extrusion width = 0.48mm (12.57mm^3/s)
; infill extrusion width = 0.48mm (12.57mm^3/s)
; solid infill extrusion width = 0.48mm (12.57mm^3/s)
; top infill extrusion width = 0.48mm (10.05mm^3/s)

M107
G92 E0
M104 S220 ; set extruder temp
M140 S60 ; set bed temp
M190 S60 ; wait for bed temp
M109 S220 ; wait for extruder temp

G92 Z40; printer always finishes here
G28 X Y;Home
G1 X 20 F1000 ;
G1 Y 20 F1000 ;
G1 Z0.01 F400 ;
;Prime the extruder
G92 E0  ;reset extruder original: G1 F200 E3
G1 E3 F200 ;Prime extruder 3mm
G92 E0
G1 Z0 F400

; Filament gcode

G21 ; set units to millimeters
G90 ; use absolute coordinates
M82 ; use absolute distances for extrusion
G92 E0
G1 Z0.200 F15000.000
G1 E-2.00000 F1200.00000
G92 E0
G1 X92.432 Y81.840 F15000.000
G1 E2.00000 F1200.00000
G1 F2880.000
G1 X94.039 Y81.044 E2.05325
G1 X95.000 Y80.929 E2.08198
G1 X115.000 Y80.929 E2.67581
G1 X116.750 Y81.324 E2.72906
G1 X118.160 Y82.432 E2.78232
G1 X118.956 Y84.039 E2.83557
G1 X119.071 Y85.000 E2.86430
G1 X119.071 Y105.000 E3.45812
G1 X118.676 Y106.750 E3.51138
G1 X117.568 Y108.160 E3.56463
G1 X115.961 Y108.956 E3.61788
G1 X115.000 Y109.071 E3.64661
G1 X95.000 Y109.071 E4.24044
G1 X93.250 Y108.676 E4.29369
G1 X91.840 Y107.568 E4.34695
G1 X91.044 Y105.961 E4.40020
G1 X90.929 Y105.000 E4.42893
G1 X90.929 Y85.000 E5.02275
G1 X91.324 Y83.250 E5.07601
G1 X92.395 Y81.888 E5.12748
G1 X92.780 Y82.022 F15000.000
G1 F2880.000
G1 X95.000 Y81.286 E5.19691
G1 X115.000 Y81.286 E5.79074
G1 X116.666 Y81.680 E5.84157
G1 X117.978 Y82.780 E5.89241
G1 X118.714 Y85.000 E5.96184
G1 X118.714 Y105.000 E6.55566
G1 X118.320 Y106.666 E6.60650
G1 X117.220 Y107.978 E6.65733
G1 X115.000 Y108.714 E6.72676
G1 X95.000 Y108.714 E7.32059
G1 X93.334 Y108.320 E7.37142
G1 X92.022 Y107.220 E7.42226
G1 X91.286 Y105.000 E7.49169
G1 X91.286 Y85.000 E8.08552
G1 X91.680 Y83.334 E8.13635
G1 X92.742 Y82.068 E8.18541
G1 X93.127 Y82.214 F15000.000
G1 F2880.000
G1 X95.000 Y81.643 E8.24356
G1 X115.000 Y81.643 E8.83738
G1 X116.578 Y82.037 E8.88568
G1 X117.786 Y83.127 E8.93397
G1 X118.357 Y85.000 E8.99213
G1 X118.357 Y105.000 E9.58595
G1 X117.963 Y106.578 E9.63425
G1 X116.873 Y107.786 E9.68254
G1 X115.000 Y108.357 E9.74069
G1 X95.000 Y108.357 E10.33452
G1 X93.422 Y107.963 E10.38281
G1 X92.214 Y106.873 E10.43111
G1 X91.643 Y105.000 E10.48926
G1 X91.643 Y85.000 E11.08309
G1 X92.037 Y83.422 E11.13138
G1 X93.086 Y82.259 E11.17790
G1 E9.17790 F1200.00000
G92 E0
G1 X114.086 Y104.086 F15000.000
G1 E2.00000 F1200.00000
G1 F4800.000
G1 X95.914 Y104.086 E2.53954
G1 X95.914 Y85.914 E3.07908
G1 X114.086 Y85.914 E3.61862
G1 X114.086 Y104.026 E4.15638
G1 X114.443 Y104.443 F15000.000
G1 F4800.000
G1 X95.557 Y104.443 E4.71713
G1 X95.557 Y85.557 E5.27787
G1 X114.443 Y85.557 E5.83862
G1 X114.443 Y104.383 E6.39758
G1 X114.800 Y104.800 F15000.000
G1 F4800.000
G1 X95.200 Y104.800 E6.97953
G1 X95.200 Y85.200 E7.56148
G1 X114.800 Y85.200 E8.14343
G1 X114.800 Y104.740 E8.72360
G1 X114.414 Y104.696 F15000.000
G1 X113.590 Y103.868 F15000.000
G1 F4800.000
G1 X113.868 Y103.590 E8.73529
G1 X113.868 Y103.084 E8.75034
G1 X113.084 Y103.868 E8.78333
G1 X112.578 Y103.868 E8.79838
G1 X113.868 Y102.578 E8.85265
G1 X113.868 Y102.072 E8.86771
G1 X112.072 Y103.868 E8.94327
G1 X111.566 Y103.868 E8.95833
G1 X113.868 Y101.566 E9.05518
G1 X113.868 Y101.060 E9.07023
G1 X111.060 Y103.868 E9.18838
G1 X110.554 Y103.868 E9.20343
G1 X113.868 Y100.554 E9.34287
G1 X113.868 Y100.048 E9.35792
G1 X110.048 Y103.868 E9.51865
G1 X109.542 Y103.868 E9.53370
G1 X113.868 Y99.542 E9.71572
G1 X113.868 Y99.036 E9.73077
G1 X109.036 Y103.868 E9.93408
G1 X108.530 Y103.868 E9.94913
G1 X113.868 Y98.530 E10.17373
G1 X113.868 Y98.024 E10.18878
G1 X108.024 Y103.868 E10.43467
G1 X107.518 Y103.868 E10.44972
G1 X113.868 Y97.518 E10.71690
G1 X113.868 Y97.012 E10.73195
G1 X107.012 Y103.868 E11.02042
G1 X106.506 Y103.868 E11.03548
G1 X113.868 Y96.506 E11.34523
G1 X113.868 Y96.000 E11.36029
G1 X106.000 Y103.868 E11.69134
G1 X105.494 Y103.868 E11.70639
G1 X113.868 Y95.494 E12.05873
G1 X113.868 Y94.988 E12.07379
G1 X104.988 Y103.868 E12.44741
G1 X104.482 Y103.868 E12.46247
G1 X113.868 Y94.482 E12.85739
G1 X113.868 Y93.976 E12.87244
G1 X103.976 Y103.868 E13.28865
G1 X103.470 Y103.868 E13.30371
G1 X113.868 Y93.470 E13.74121
G1 X113.868 Y92.964 E13.75626
G1 X102.964 Y103.868 E14.21505
G1 X102.458 Y103.868 E14.23011
G1 X113.868 Y92.458 E14.71019
G1 X113.868 Y91.952 E14.72524
G1 X101.952 Y103.868 E15.22662
G1 X101.445 Y103.868 E15.24167
G1 X113.868 Y91.446 E15.76433
G1 X113.868 Y90.939 E15.77939
G1 X100.939 Y103.868 E16.32334
G1 X100.433 Y103.868 E16.33840
G1 X113.868 Y90.433 E16.90364
G1 X113.868 Y89.927 E16.91869
G1 X99.927 Y103.868 E17.50523
G1 X99.421 Y103.868 E17.52028
G1 X113.868 Y89.421 E18.12811
G1 X113.868 Y88.915 E18.14316
G1 X98.915 Y103.868 E18.77227
G1 X98.409 Y103.868 E18.78733
G1 X113.868 Y88.409 E19.43773
G1 X113.868 Y87.903 E19.45279
G1 X97.903 Y103.868 E20.12448
G1 X97.397 Y103.868 E20.13954
G1 X113.868 Y87.397 E20.83252
G1 X113.868 Y86.891 E20.84758
G1 X96.891 Y103.868 E21.56185
G1 X96.385 Y103.868 E21.57691
G1 X113.868 Y86.385 E22.31248
G1 X113.868 Y86.132 E22.32000
G1 X113.615 Y86.132 E22.32753
G1 X96.132 Y103.615 E23.06310
G1 X96.132 Y103.109 E23.07815
G1 X113.109 Y86.132 E23.79243
G1 X112.603 Y86.132 E23.80749
G1 X96.132 Y102.603 E24.50048
G1 X96.132 Y102.097 E24.51553
G1 X112.097 Y86.132 E25.18723
G1 X111.591 Y86.132 E25.20228
G1 X96.132 Y101.591 E25.85269
G1 X96.132 Y101.085 E25.86775
G1 X111.085 Y86.132 E26.49686
G1 X110.579 Y86.132 E26.51192
G1 X96.132 Y100.579 E27.11975
G1 X96.132 Y100.073 E27.13480
G1 X110.073 Y86.132 E27.72134
G1 X109.567 Y86.132 E27.73639
G1 X96.132 Y99.567 E28.30164
G1 X96.132 Y99.061 E28.31669
G1 X109.061 Y86.132 E28.86065
G1 X108.555 Y86.132 E28.87570
G1 X96.132 Y98.555 E29.39837
G1 X96.132 Y98.049 E29.41342
G1 X108.049 Y86.132 E29.91480
G1 X107.543 Y86.132 E29.92985
G1 X96.132 Y97.543 E30.40994
G1 X96.132 Y97.037 E30.42499
G1 X107.037 Y86.132 E30.88379
G1 X106.531 Y86.132 E30.89884
G1 X96.132 Y96.531 E31.33634
G1 X96.132 Y96.025 E31.35140
G1 X106.025 Y86.132 E31.76761
G1 X105.519 Y86.132 E31.78267
G1 X96.132 Y95.519 E32.17759
G1 X96.132 Y95.012 E32.19264
G1 X105.012 Y86.132 E32.56628
G1 X104.506 Y86.132 E32.58133
G1 X96.132 Y94.506 E32.93367
G1 X96.132 Y94.000 E32.94873
G1 X104.000 Y86.132 E33.27978
G1 X103.494 Y86.132 E33.29483
G1 X96.132 Y93.494 E33.60459
G1 X96.132 Y92.988 E33.61965
G1 X102.988 Y86.132 E33.90812
G1 X102.482 Y86.132 E33.92317
G1 X96.132 Y92.482 E34.19035
G1 X96.132 Y91.976 E34.20541
G1 X101.976 Y86.132 E34.45130
G1 X101.470 Y86.132 E34.46635
G1 X96.132 Y91.470 E34.69095
G1 X96.132 Y90.964 E34.70601
G1 X100.964 Y86.132 E34.90932
G1 X100.458 Y86.132 E34.92437
G1 X96.132 Y90.458 E35.10639
G1 X96.132 Y89.952 E35.12144
G1 X99.952 Y86.132 E35.28217
G1 X99.446 Y86.132 E35.29723
G1 X96.132 Y89.446 E35.43666
G1 X96.132 Y88.940 E35.45172
G1 X98.940 Y86.132 E35.56987
G1 X98.434 Y86.132 E35.58492
G1 X96.132 Y88.434 E35.68178
G1 X96.132 Y87.928 E35.69683
G1 X97.928 Y86.132 E35.77240
G1 X97.422 Y86.132 E35.78745
G1 X96.132 Y87.422 E35.84173
G1 X96.132 Y86.916 E35.85678
G1 X96.916 Y86.132 E35.88977
G1 X96.410 Y86.132 E35.90482
G1 X96.133 Y86.410 E35.91651
G1 Z0.500 F15000.000
G1 X113.964 Y103.964 F15000.000
G1 F6000.000
G1 X96.036 Y103.964 E36.85314
G1 X96.036 Y86.036 E37.78978
G1 X113.964 Y86.036 E38.72641
G1 X113.964 Y103.904 E39.65991
G1 X114.383 Y104.383 F15000.000
G1 F6000.000
G1 X95.617 Y104.383 E40.64031
G1 X95.617 Y85.617 E41.62071
G1 X114.383 Y85.617 E42.60111
G1 X114.383 Y104.323 E43.57838
G1 X114.780 Y104.780 F15000.000
G1 F6000.000
G1 X95.220 Y104.780 E44.49475
G1 X95.220 Y85.220 E45.41113
G1 X114.780 Y85.220 E46.32750
G1 X114.780 Y104.720 E47.24106
G1 X114.394 Y104.676 F15000.000
G1 X113.708 Y86.618 F15000.000
G1 F6000.000
G1 X113.382 Y86.292 E47.26544
G1 X112.782 Y86.292 E47.29715
G1 X113.708 Y87.218 E47.36638
G1 X113.708 Y87.817 E47.39809
G1 X112.183 Y86.292 E47.51216
G1 X111.583 Y86.292 E47.54388
G1 X113.708 Y88.417 E47.70280
G1 X113.708 Y89.017 E47.73451
G1 X110.983 Y86.292 E47.93828
G1 X110.384 Y86.292 E47.96999
G1 X113.708 Y89.616 E48.21861
G1 X113.708 Y90.216 E48.25033
G1 X109.784 Y86.292 E48.54379
G1 X109.184 Y86.292 E48.57550
G1 X113.708 Y90.816 E48.91382
G1 X113.708 Y91.415 E48.94553
G1 X108.585 Y86.292 E49.32869
G1 X107.985 Y86.292 E49.36041
G1 X113.708 Y92.015 E49.78842
G1 X113.708 Y92.614 E49.82013
G1 X107.386 Y86.292 E50.29299
G1 X106.786 Y86.292 E50.32470
G1 X113.708 Y93.214 E50.84241
G1 X113.708 Y93.814 E50.87412
G1 X106.186 Y86.292 E51.43668
G1 X105.587 Y86.292 E51.46839
G1 X113.708 Y94.413 E52.07579
G1 X113.708 Y95.013 E52.10750
G1 X104.987 Y86.292 E52.75975
G1 X104.387 Y86.292 E52.79147
G1 X113.708 Y95.613 E53.48857
G1 X113.708 Y96.212 E53.52028
G1 X103.788 Y86.292 E54.26223
G1 X103.188 Y86.292 E54.29394
G1 X113.708 Y96.812 E55.08073
G1 X113.708 Y97.412 E55.11245
G1 X102.588 Y86.292 E55.94409
G1 X101.989 Y86.292 E55.97580
G1 X113.708 Y98.011 E56.85229
G1 X113.708 Y98.611 E56.88400
G1 X101.389 Y86.292 E57.80534
G1 X100.789 Y86.292 E57.83706
G1 X113.708 Y99.211 E58.80324
G1 X113.708 Y99.810 E58.83496
G1 X100.190 Y86.292 E59.84599
G1 X99.590 Y86.292 E59.87770
G1 X113.708 Y100.410 E60.93359
G1 X113.708 Y101.010 E60.96530
G1 X98.990 Y86.292 E62.06603
G1 X98.391 Y86.292 E62.09774
G1 X113.708 Y101.609 E63.24332
G1 X113.708 Y102.209 E63.27504
G1 X97.791 Y86.292 E64.46546
G1 X97.192 Y86.292 E64.49718
G1 X113.708 Y102.808 E65.73245
G1 X113.708 Y103.408 E65.76416
G1 X96.592 Y86.292 E67.04429
G1 X96.292 Y86.292 E67.06014
G1 X96.292 Y86.592 E67.07600
G1 X113.408 Y103.708 E68.35613
G1 X112.808 Y103.708 E68.38784
G1 X96.292 Y87.192 E69.62312
G1 X96.292 Y87.791 E69.65483
G1 X112.209 Y103.708 E70.84526
G1 X111.609 Y103.708 E70.87697
G1 X96.292 Y88.391 E72.02255
G1 X96.292 Y88.990 E72.05426
G1 X111.010 Y103.708 E73.15499
G1 X110.410 Y103.708 E73.18671
G1 X96.292 Y89.590 E74.24259
G1 X96.292 Y90.190 E74.27430
G1 X109.810 Y103.708 E75.28534
G1 X109.211 Y103.708 E75.31705
G1 X96.292 Y90.789 E76.28324
G1 X96.292 Y91.389 E76.31495
G1 X108.611 Y103.708 E77.23630
G1 X108.011 Y103.708 E77.26801
G1 X96.292 Y91.989 E78.14450
G1 X96.292 Y92.588 E78.17621
G1 X107.412 Y103.708 E79.00786
G1 X106.812 Y103.708 E79.03957
G1 X96.292 Y93.188 E79.82637
G1 X96.292 Y93.788 E79.85808
G1 X106.212 Y103.708 E80.60003
G1 X105.613 Y103.708 E80.63174
G1 X96.292 Y94.387 E81.32884
G1 X96.292 Y94.987 E81.36055
G1 X105.013 Y103.708 E82.01280
G1 X104.413 Y103.708 E82.04452
G1 X96.292 Y95.587 E82.65192
G1 X96.292 Y96.186 E82.68363
G1 X103.814 Y103.708 E83.24619
G1 X103.214 Y103.708 E83.27790
G1 X96.292 Y96.786 E83.79561
G1 X96.292 Y97.386 E83.82732
G1 X102.614 Y103.708 E84.30018
G1 X102.015 Y103.708 E84.33189
G1 X96.292 Y97.985 E84.75991
G1 X96.292 Y98.585 E84.79162
G1 X101.415 Y103.708 E85.17478
G1 X100.816 Y103.708 E85.20649
G1 X96.292 Y99.184 E85.54481
G1 X96.292 Y99.784 E85.57652
G1 X100.216 Y103.708 E85.86999
G1 X99.616 Y103.708 E85.90170
G1 X96.292 Y100.384 E86.15032
G1 X96.292 Y100.983 E86.18204
G1 X99.017 Y103.708 E86.38581
G1 X98.417 Y103.708 E86.41752
G1 X96.292 Y101.583 E86.57644
G1 X96.292 Y102.183 E86.60816
G1 X97.817 Y103.708 E86.72223
G1 X97.218 Y103.708 E86.75394
G1 X96.292 Y102.782 E86.82317
G1 X96.292 Y103.382 E86.85488
G1 X96.618 Y103.708 E86.87925
G1 Z0.800 F15000.000
G1 X113.964 Y103.964 F15000.000
G1 F6000.000
G1 X96.036 Y103.964 E87.81588
G1 X96.036 Y86.036 E88.75252
G1 X113.964 Y86.036 E89.68915
G1 X113.964 Y103.904 E90.62265
G1 X114.383 Y104.383 F15000.000
G1 F6000.000
G1 X95.617 Y104.383 E91.60305
G1 X95.617 Y85.617 E92.58345
G1 X114.383 Y85.617 E93.56386
G1 X114.383 Y104.323 E94.54112
G1 X114.780 Y104.780 F15000.000
G1 F6000.000
G1 X95.220 Y104.780 E95.45750
G1 X95.220 Y85.220 E96.37387
G1 X114.780 Y85.220 E97.29024
G1 X114.780 Y104.720 E98.20380
G1 X114.394 Y104.676 F15000.000
G1 X113.382 Y103.708 F15000.000
G1 F6000.000
G1 X113.708 Y103.382 E98.22818
G1 X113.708 Y102.782 E98.25989
G1 X112.782 Y103.708 E98.32912
G1 X112.183 Y103.708 E98.36083
G1 X113.708 Y102.183 E98.47491
G1 X113.708 Y101.583 E98.50662
G1 X111.583 Y103.708 E98.66554
G1 X110.983 Y103.708 E98.69725
G1 X113.708 Y100.983 E98.90102
G1 X113.708 Y100.384 E98.93274
G1 X110.384 Y103.708 E99.18136
G1 X109.784 Y103.708 E99.21307
G1 X113.708 Y99.784 E99.50653
G1 X113.708 Y99.184 E99.53825
G1 X109.184 Y103.708 E99.87656
G1 X108.585 Y103.708 E99.90827
G1 X113.708 Y98.585 E100.29144
G1 X113.708 Y97.985 E100.32315
G1 X107.985 Y103.708 E100.75116
G1 X107.386 Y103.708 E100.78287
G1 X113.708 Y97.386 E101.25573
G1 X113.708 Y96.786 E101.28744
G1 X106.786 Y103.708 E101.80515
G1 X106.186 Y103.708 E101.83686
G1 X113.708 Y96.186 E102.39942
G1 X113.708 Y95.587 E102.43113
G1 X105.587 Y103.708 E103.03853
G1 X104.987 Y103.708 E103.07024
G1 X113.708 Y94.987 E103.72250
G1 X113.708 Y94.387 E103.75421
G1 X104.387 Y103.708 E104.45131
G1 X103.788 Y103.708 E104.48302
G1 X113.708 Y93.788 E105.22497
G1 X113.708 Y93.188 E105.25668
G1 X103.188 Y103.708 E106.04347
G1 X102.588 Y103.708 E106.07519
G1 X113.708 Y92.588 E106.90683
G1 X113.708 Y91.989 E106.93854
G1 X101.989 Y103.708 E107.81503
G1 X101.389 Y103.708 E107.84675
G1 X113.708 Y91.389 E108.76809
G1 X113.708 Y90.789 E108.79980
G1 X100.789 Y103.708 E109.76599
G1 X100.190 Y103.708 E109.79770
G1 X113.708 Y90.190 E110.80873
G1 X113.708 Y89.590 E110.84045
G1 X99.590 Y103.708 E111.89633
G1 X98.990 Y103.708 E111.92804
G1 X113.708 Y88.990 E113.02877
G1 X113.708 Y88.391 E113.06049
G1 X98.391 Y103.708 E114.20606
G1 X97.791 Y103.708 E114.23778
G1 X113.708 Y87.791 E115.42820
G1 X113.708 Y87.192 E115.45992
G1 X97.192 Y103.708 E116.69519
G1 X96.592 Y103.708 E116.72691
G1 X113.708 Y86.592 E118.00703
G1 X113.708 Y86.292 E118.02289
G1 X113.408 Y86.292 E118.03874
G1 X96.292 Y103.408 E119.31887
G1 X96.292 Y102.808 E119.35058
G1 X112.808 Y86.292 E120.58586
G1 X112.209 Y86.292 E120.61757
G1 X96.292 Y102.209 E121.80800
G1 X96.292 Y101.609 E121.83971
G1 X111.609 Y86.292 E122.98529
G1 X111.010 Y86.292 E123.01700
G1 X96.292 Y101.010 E124.11774
G1 X96.292 Y100.410 E124.14945
G1 X110.410 Y86.292 E125.20533
G1 X109.810 Y86.292 E125.23704
G1 X96.292 Y99.810 E126.24808
G1 X96.292 Y99.211 E126.27979
G1 X109.211 Y86.292 E127.24598
G1 X108.611 Y86.292 E127.27769
G1 X96.292 Y98.611 E128.19903
G1 X96.292 Y98.011 E128.23075
G1 X108.011 Y86.292 E129.10724
G1 X107.412 Y86.292 E129.13895
G1 X96.292 Y97.412 E129.97060
G1 X96.292 Y96.812 E130.00231
G1 X106.812 Y86.292 E130.78911
G1 X106.212 Y86.292 E130.82082
G1 X96.292 Y96.212 E131.56277
G1 X96.292 Y95.613 E131.59448
G1 X105.613 Y86.292 E132.29158
G1 X105.013 Y86.292 E132.32329
G1 X96.292 Y95.013 E132.97554
G1 X96.292 Y94.413 E133.00726
G1 X104.413 Y86.292 E133.61466
G1 X103.814 Y86.292 E133.64637
G1 X96.292 Y93.814 E134.20893
G1 X96.292 Y93.214 E134.24064
G1 X103.214 Y86.292 E134.75835
G1 X102.614 Y86.292 E134.79006
G1 X96.292 Y92.614 E135.26292
G1 X96.292 Y92.015 E135.29463
G1 X102.015 Y86.292 E135.72265
G1 X101.415 Y86.292 E135.75436
G1 X96.292 Y91.415 E136.13752
G1 X96.292 Y90.816 E136.16923
G1 X100.816 Y86.292 E136.50755
G1 X100.216 Y86.292 E136.53926
G1 X96.292 Y90.216 E136.83273
G1 X96.292 Y89.616 E136.86444
G1 X99.616 Y86.292 E137.11306
G1 X99.017 Y86.292 E137.14477
