; generated by Slic3r 1.3.1-dev (Build 24fc045) on 2023-07-01 at 15:47:34

; Print Config Notes: 
; TJH N0.4 S100
; 
; Filament notes: 
; Change log
; 
; v04->05
; Problem seperation at 03 layer height
; solution: rise temp to 210
; 
; v03->04
; problem: tail overhang was sloppy- not present in V01
; solution: cooling fan set to 100% 
; 
; 
; v02->03
; problem: slight layer sepration at top layers[SOLVED with these settings]
; 
; solution
; raised printing temp to 200 (from 190)
; cooling can set to half value (Max %50)
; 
; v01 -> v02
; problem: layer sepration at top layers
; 
; solution
; Removed cooling fan 
; [unchecked] cooling->enable auto cooling
; 
; v5->v6
; increased temp 215->225 layer seperation
; extrusion multiplier 1->1.1 
; 
; 
; 
; external perimeters extrusion width = 0.44mm (11.27mm^3/s)
; perimeters extrusion width = 0.48mm (12.57mm^3/s)
; infill extrusion width = 0.48mm (12.57mm^3/s)
; solid infill extrusion width = 0.48mm (12.57mm^3/s)
; top infill extrusion width = 0.48mm (10.05mm^3/s)

M107
G92 E0
M104 S220 ; set extruder temp
M140 S60 ; set bed temp
M190 S60 ; wait for bed temp
M109 S220 ; wait for extruder temp

G92 Z40; printer always finishes here
G28 X Y;Home
G1 X 20 F1000 ;
G1 Y 20 F1000 ;
G1 Z0.01 F400 ;
;Prime the extruder
G92 E0  ;reset extruder original: G1 F200 E3
G1 E3 F200 ;Prime extruder 3mm
G92 E0
G1 Z0 F400

; Filament gcode

G21 ; set units to millimeters
G90 ; use absolute coordinates
M82 ; use absolute distances for extrusion
G92 E0
G1 Z0.200 F15000.000
G1 E-2.00000 F1200.00000
G92 E0
G1 X76.330 Y66.686 F15000.000
G1 E2.00000 F1200.00000
G1 F2880.000
G1 X77.575 Y65.394 E2.05325
G1 X79.812 Y64.724 E2.12260
G1 X130.188 Y64.724 E3.61833
G1 X131.938 Y65.120 E3.67158
G1 X133.670 Y66.686 E3.74093
G1 X143.670 Y83.190 E4.31389
G1 X144.259 Y85.300 E4.37893
G1 X144.259 Y121.204 E5.44498
G1 X143.864 Y122.954 E5.49823
G1 X142.756 Y124.364 E5.55149
G1 X141.149 Y125.161 E5.60474
G1 X140.188 Y125.276 E5.63347
G1 X69.812 Y125.276 E7.72302
G1 X68.062 Y124.880 E7.77627
G1 X66.653 Y123.772 E7.82953
G1 X65.856 Y122.165 E7.88278
G1 X65.741 Y121.204 E7.91151
G1 X65.741 Y85.300 E8.97755
G1 X66.330 Y83.190 E9.04259
G1 X76.299 Y66.737 E9.61378
G1 X76.635 Y66.871 F15000.000
G1 F2880.000
G1 X77.836 Y65.651 E9.66461
G1 X79.812 Y65.082 E9.72566
G1 X130.188 Y65.082 E11.22138
G1 X131.854 Y65.476 E11.27222
G1 X133.365 Y66.871 E11.33327
G1 X143.365 Y83.375 E11.90623
G1 X143.902 Y85.300 E11.96557
G1 X143.902 Y121.204 E13.03161
G1 X143.508 Y122.870 E13.08245
G1 X142.408 Y124.182 E13.13328
G1 X140.188 Y124.918 E13.20271
G1 X69.812 Y124.918 E15.29226
G1 X68.146 Y124.524 E15.34310
G1 X66.834 Y123.424 E15.39393
G1 X66.098 Y121.204 E15.46337
G1 X66.098 Y85.300 E16.52941
G1 X66.635 Y83.375 E16.58874
G1 X76.604 Y66.922 E17.15993
G1 X76.941 Y67.056 F15000.000
G1 F2880.000
G1 X78.096 Y65.911 E17.20822
G1 X79.812 Y65.439 E17.26108
G1 X130.188 Y65.439 E18.75680
G1 X131.766 Y65.833 E18.80510
G1 X133.059 Y67.056 E18.85795
G1 X143.059 Y83.560 E19.43092
G1 X143.545 Y85.300 E19.48455
G1 X143.545 Y121.204 E20.55059
G1 X143.151 Y122.782 E20.59888
G1 X142.061 Y123.990 E20.64718
G1 X140.188 Y124.561 E20.70533
G1 X69.812 Y124.561 E22.79489
G1 X68.234 Y124.167 E22.84318
G1 X67.026 Y123.078 E22.89147
G1 X66.455 Y121.204 E22.94963
G1 X66.455 Y85.300 E24.01567
G1 X66.941 Y83.560 E24.06930
G1 X76.910 Y67.107 E24.64049
G1 E22.64049 F1200.00000
G92 E0
G1 X129.480 Y86.214 F15000.000
G1 E2.00000 F1200.00000
G1 F4800.000
G1 X139.274 Y86.214 E2.29080
G1 X139.274 Y91.086 E2.43544
G1 X108.914 Y91.086 E3.33686
G1 X108.914 Y86.214 E3.48151
G1 X118.708 Y86.214 E3.77230
G1 X118.708 Y79.519 E3.97108
G1 X118.912 Y79.509 E3.97713
G1 X118.942 Y79.815 E3.98625
G1 X119.067 Y80.391 E4.00376
G1 X119.256 Y80.950 E4.02127
G1 X119.507 Y81.483 E4.03877
G1 X119.817 Y81.985 E4.05628
G1 X120.181 Y82.449 E4.07379
G1 X120.596 Y82.868 E4.09129
G1 X121.055 Y83.238 E4.10880
G1 X121.552 Y83.554 E4.12631
G1 X122.083 Y83.812 E4.14381
G1 X122.639 Y84.008 E4.16132
G1 X123.213 Y84.141 E4.17883
G1 X123.799 Y84.207 E4.19634
G1 X124.389 Y84.207 E4.21384
G1 X124.975 Y84.141 E4.23135
G1 X125.549 Y84.008 E4.24886
G1 X126.105 Y83.812 E4.26636
G1 X126.636 Y83.554 E4.28387
G1 X127.133 Y83.238 E4.30138
G1 X127.592 Y82.868 E4.31888
G1 X128.007 Y82.449 E4.33639
G1 X128.371 Y81.985 E4.35390
G1 X128.680 Y81.483 E4.37141
G1 X128.931 Y80.950 E4.38891
G1 X129.121 Y80.391 E4.40642
G1 X129.246 Y79.815 E4.42393
G1 X129.276 Y79.509 E4.43305
G1 X129.480 Y79.519 E4.43910
G1 X129.480 Y86.154 E4.63610
G1 E2.63610 F1200.00000
G92 E0
G1 X129.274 Y77.487 F15000.000
G1 E2.00000 F1200.00000
G1 F4800.000
G1 X129.097 Y77.518 E2.00533
G1 X128.880 Y76.927 E2.02401
G1 X128.616 Y76.400 E2.04152
G1 X128.293 Y75.907 E2.05902
G1 X127.917 Y75.452 E2.07653
G1 X127.492 Y75.044 E2.09404
G1 X127.024 Y74.685 E2.11154
G1 X126.518 Y74.382 E2.12905
G1 X126.102 Y74.193 E2.14263
G1 X126.102 Y69.710 E2.27573
G1 X129.274 Y69.710 E2.36991
G1 X129.274 Y77.427 E2.59902
G1 E0.59902 F1200.00000
G92 E0
G1 X118.914 Y77.486 F15000.000
G1 E2.00000 F1200.00000
G1 F4800.000
G1 X118.914 Y69.710 E2.23090
G1 X122.086 Y69.710 E2.32507
G1 X122.086 Y74.193 E2.45817
G1 X121.669 Y74.382 E2.47175
G1 X121.164 Y74.685 E2.48926
G1 X120.695 Y75.044 E2.50677
G1 X120.271 Y75.452 E2.52427
G1 X119.895 Y75.907 E2.54178
G1 X119.572 Y76.400 E2.55929
G1 X119.308 Y76.927 E2.57679
G1 X119.091 Y77.518 E2.59547
G1 X118.973 Y77.497 E2.59902
G1 E0.59902 F1200.00000
G92 E0
G1 X118.351 Y85.857 F15000.000
G1 E2.00000 F1200.00000
G1 F4800.000
G1 X118.351 Y79.012 E2.20324
G1 X118.372 Y78.511 E2.21814
G1 X118.435 Y78.024 E2.23272
G1 X118.557 Y77.462 E2.24979
G1 X118.557 Y69.353 E2.49055
G1 X122.443 Y69.353 E2.60593
G1 X122.443 Y74.437 E2.75688
G1 X121.836 Y74.699 E2.77651
G1 X121.365 Y74.981 E2.79282
G1 X120.929 Y75.315 E2.80913
G1 X120.533 Y75.696 E2.82543
G1 X120.183 Y76.119 E2.84174
G1 X119.882 Y76.579 E2.85804
G1 X119.636 Y77.070 E2.87435
G1 X119.447 Y77.585 E2.89066
G1 X119.317 Y78.119 E2.90696
G1 X119.248 Y78.663 E2.92327
G1 X119.241 Y79.213 E2.93958
G1 X119.296 Y79.759 E2.95588
G1 X119.412 Y80.296 E2.97219
G1 X119.588 Y80.816 E2.98850
G1 X119.822 Y81.313 E3.00480
G1 X120.110 Y81.780 E3.02111
G1 X120.450 Y82.212 E3.03742
G1 X120.835 Y82.603 E3.05372
G1 X121.263 Y82.948 E3.07003
G1 X121.727 Y83.242 E3.08634
G1 X122.221 Y83.482 E3.10264
G1 X122.738 Y83.665 E3.11895
G1 X123.274 Y83.788 E3.13525
G1 X123.819 Y83.850 E3.15156
G1 X124.369 Y83.850 E3.16787
G1 X124.914 Y83.788 E3.18417
G1 X125.449 Y83.665 E3.20048
G1 X125.967 Y83.482 E3.21679
G1 X126.461 Y83.242 E3.23309
G1 X126.925 Y82.948 E3.24940
G1 X127.352 Y82.603 E3.26571
G1 X127.738 Y82.212 E3.28201
G1 X128.078 Y81.780 E3.29832
G1 X128.366 Y81.313 E3.31463
G1 X128.600 Y80.816 E3.33093
G1 X128.776 Y80.296 E3.34724
G1 X128.892 Y79.759 E3.36355
G1 X128.947 Y79.213 E3.37985
G1 X128.940 Y78.663 E3.39616
G1 X128.871 Y78.119 E3.41246
G1 X128.741 Y77.585 E3.42877
G1 X128.552 Y77.070 E3.44508
G1 X128.306 Y76.579 E3.46138
G1 X128.005 Y76.119 E3.47769
G1 X127.655 Y75.696 E3.49400
G1 X127.259 Y75.315 E3.51030
G1 X126.823 Y74.981 E3.52661
G1 X126.352 Y74.699 E3.54292
G1 X125.745 Y74.437 E3.56255
G1 X125.745 Y69.353 E3.71350
G1 X129.631 Y69.353 E3.82887
G1 X129.631 Y77.462 E4.06964
G1 X129.753 Y78.024 E4.08671
G1 X129.816 Y78.511 E4.10129
G1 X129.837 Y79.012 E4.11619
G1 X129.837 Y85.857 E4.31943
G1 X139.631 Y85.857 E4.61022
G1 X139.631 Y91.443 E4.77608
G1 X108.557 Y91.443 E5.69870
G1 X108.557 Y85.857 E5.86455
G1 X118.291 Y85.857 E6.15356
G1 X117.994 Y85.500 F15000.000
G1 F4800.000
G1 X117.994 Y79.004 E6.34643
G1 X118.016 Y78.480 E6.36200
G1 X118.083 Y77.963 E6.37749
G1 X118.200 Y77.424 E6.39388
G1 X118.200 Y68.996 E6.64411
G1 X122.800 Y68.996 E6.78069
G1 X122.800 Y74.696 E6.94994
G1 X122.465 Y74.805 E6.96040
G1 X122.002 Y75.015 E6.97550
G1 X121.566 Y75.277 E6.99061
G1 X121.162 Y75.586 E7.00571
G1 X120.795 Y75.939 E7.02082
G1 X120.471 Y76.331 E7.03593
G1 X120.192 Y76.757 E7.05103
G1 X119.964 Y77.212 E7.06614
G1 X119.789 Y77.689 E7.08124
G1 X119.668 Y78.184 E7.09635
G1 X119.604 Y78.688 E7.11146
G1 X119.598 Y79.197 E7.12656
G1 X119.649 Y79.703 E7.14167
G1 X119.757 Y80.200 E7.15677
G1 X119.920 Y80.682 E7.17188
G1 X120.136 Y81.143 E7.18699
G1 X120.404 Y81.576 E7.20209
G1 X120.718 Y81.976 E7.21720
G1 X121.075 Y82.338 E7.23230
G1 X121.471 Y82.657 E7.24741
G1 X121.901 Y82.930 E7.26252
G1 X122.359 Y83.152 E7.27762
G1 X122.838 Y83.322 E7.29273
G1 X123.334 Y83.436 E7.30783
G1 X123.840 Y83.493 E7.32294
G1 X124.348 Y83.493 E7.33805
G1 X124.854 Y83.436 E7.35315
G1 X125.350 Y83.322 E7.36826
G1 X125.829 Y83.152 E7.38336
G1 X126.287 Y82.930 E7.39847
G1 X126.717 Y82.657 E7.41358
G1 X127.113 Y82.338 E7.42868
G1 X127.470 Y81.976 E7.44379
G1 X127.784 Y81.576 E7.45889
G1 X128.051 Y81.143 E7.47400
G1 X128.268 Y80.682 E7.48911
G1 X128.431 Y80.200 E7.50421
G1 X128.539 Y79.703 E7.51932
G1 X128.590 Y79.197 E7.53442
G1 X128.583 Y78.688 E7.54953
G1 X128.520 Y78.184 E7.56464
G1 X128.399 Y77.689 E7.57974
G1 X128.224 Y77.212 E7.59485
G1 X127.995 Y76.757 E7.60995
G1 X127.717 Y76.331 E7.62506
G1 X127.393 Y75.939 E7.64017
G1 X127.026 Y75.586 E7.65527
G1 X126.622 Y75.277 E7.67038
G1 X126.186 Y75.015 E7.68548
G1 X125.723 Y74.805 E7.70059
G1 X125.388 Y74.696 E7.71104
G1 X125.388 Y68.996 E7.88030
G1 X129.988 Y68.996 E8.01688
G1 X129.988 Y77.424 E8.26711
G1 X130.105 Y77.963 E8.28349
G1 X130.172 Y78.480 E8.29898
G1 X130.194 Y79.004 E8.31456
G1 X130.194 Y85.500 E8.50742
G1 X139.988 Y85.500 E8.79822
G1 X139.988 Y91.800 E8.98527
G1 X108.200 Y91.800 E9.92910
G1 X108.200 Y85.500 E10.11616
G1 X117.934 Y85.500 E10.40517
G1 X118.387 Y85.424 F15000.000
G1 E8.40517 F1200.00000
G92 E0
G1 X119.089 Y81.551 F15000.000
G1 E2.00000 F1200.00000
G1 F4800.000
G1 X118.949 Y80.793 E2.01097
G1 F4800.000
G1 X118.907 Y80.536 E2.01282
G1 X118.795 Y79.336 F15000.000
G1 F4800.000
G1 X118.815 Y78.549 E2.04452
G1 X118.880 Y78.053 E2.06462
G1 X118.966 Y77.677 E2.08014
G1 E0.08014 F1200.00000
G92 E0
G1 X121.590 Y74.102 F15000.000
G1 E2.00000 F1200.00000
G1 F4800.000
G1 X121.868 Y73.824 E2.01224
G1 X121.868 Y73.294 E2.02872
G1 X119.132 Y76.030 E2.14914
G1 X119.132 Y75.500 E2.16562
G1 X121.868 Y72.765 E2.28603
G1 X121.868 Y72.236 E2.30251
G1 X119.132 Y74.971 E2.42293
G1 X119.132 Y74.441 E2.43941
G1 X121.868 Y71.706 E2.55983
G1 X121.868 Y71.177 E2.57631
G1 X119.132 Y73.912 E2.69672
G1 X119.132 Y73.383 E2.71321
G1 X121.868 Y70.647 E2.83362
G1 X121.868 Y70.118 E2.85010
G1 X119.132 Y72.853 E2.97052
G1 X119.132 Y72.324 E2.98700
G1 X121.528 Y69.928 E3.09246
G1 X120.999 Y69.928 E3.10894
G1 X119.132 Y71.794 E3.19110
G1 X119.132 Y71.265 E3.20758
G1 X120.469 Y69.928 E3.26643
G1 X119.940 Y69.928 E3.28291
G1 X119.132 Y70.735 E3.31845
G1 X119.132 Y70.206 E3.33493
G1 X119.410 Y69.928 E3.34717
G1 E1.34717 F1200.00000
G92 E0
G1 X126.320 Y70.206 F15000.000
G1 E2.00000 F1200.00000
G1 F4800.000
G1 X126.598 Y69.928 E2.01168
G1 X127.104 Y69.928 E2.02672
G1 X126.320 Y70.712 E2.05969
G1 X126.320 Y71.218 E2.07473
G1 X127.610 Y69.928 E2.12897
G1 X128.116 Y69.928 E2.14401
G1 X126.320 Y71.723 E2.21952
G1 X126.320 Y72.229 E2.23456
G1 X128.621 Y69.928 E2.33135
G1 X129.056 Y69.928 E2.34426
G1 X129.056 Y70.000 E2.34639
G1 X126.320 Y72.735 E2.46144
G1 X126.320 Y73.241 E2.47648
G1 X129.056 Y70.506 E2.59152
G1 X129.056 Y71.011 E2.60657
G1 X126.320 Y73.747 E2.72161
G1 X126.320 Y74.102 E2.73217
G1 X126.424 Y74.149 E2.73556
G1 X129.056 Y71.517 E2.84624
G1 X129.056 Y72.023 E2.86129
G1 X126.751 Y74.327 E2.95821
G1 X127.067 Y74.517 E2.96918
G1 X129.056 Y72.529 E3.05280
G1 X129.056 Y73.035 E3.06784
G1 X127.356 Y74.735 E3.13934
G1 X127.637 Y74.959 E3.15004
G1 X129.056 Y73.540 E3.20972
G1 X129.056 Y74.046 E3.22476
G1 X127.894 Y75.207 E3.27360
G1 X128.140 Y75.468 E3.28424
G1 X129.056 Y74.552 E3.32276
G1 X129.056 Y75.058 E3.33780
G1 X128.369 Y75.745 E3.36669
G1 X128.578 Y76.041 E3.37748
G1 X129.056 Y75.564 E3.39757
G1 X129.056 Y76.070 E3.41261
G1 X128.778 Y76.347 E3.42429
G1 X129.222 Y77.677 F15000.000
G1 F4800.000
G1 X129.308 Y78.053 E3.44008
G1 X129.373 Y78.549 E3.46052
G1 X129.393 Y79.336 E3.49275
G1 X129.281 Y80.536 F15000.000
G1 F4800.000
G1 X129.239 Y80.793 E3.49461
G1 F4800.000
G1 X129.099 Y81.551 E3.50558
G1 E1.50558 F1200.00000
G92 E0
G1 X119.294 Y82.182 F15000.000
G1 E2.00000 F1200.00000
G1 F4800.000
G1 X119.187 Y82.008 E2.00617
G1 X118.926 Y82.058 E2.01416
G1 X118.926 Y82.550 E2.02898
G1 X119.572 Y81.904 E2.05648
G1 X119.784 Y82.205 E2.06755
G1 X118.926 Y83.062 E2.10406
G1 X118.926 Y83.574 E2.11949
G1 X120.009 Y82.492 E2.16560
G1 X120.258 Y82.755 E2.17651
G1 X118.926 Y84.087 E2.23321
G1 X118.926 Y84.599 E2.24864
G1 X120.514 Y83.011 E2.31627
G1 X120.798 Y83.239 E2.32723
G1 X118.926 Y85.111 E2.40694
G1 X118.926 Y85.623 E2.42236
G1 X121.092 Y83.458 E2.51457
G1 X121.405 Y83.657 E2.52574
G1 X118.926 Y86.135 E2.63130
G1 X118.926 Y86.647 E2.64672
G1 X121.738 Y83.835 E2.76647
G1 X122.083 Y84.003 E2.77801
G1 X115.218 Y90.868 E3.07035
G1 X115.730 Y90.868 E3.08578
G1 X122.461 Y84.137 E3.37243
G1 X122.856 Y84.254 E3.38483
G1 X116.243 Y90.868 E3.66648
G1 X116.755 Y90.868 E3.68190
G1 X123.272 Y84.350 E3.95947
G1 X123.730 Y84.404 E3.97335
G1 X117.267 Y90.868 E4.24861
G1 X117.779 Y90.868 E4.26403
G1 X124.221 Y84.425 E4.53839
G1 X124.548 Y84.425 E4.54822
G1 X124.757 Y84.402 E4.55456
G1 X118.291 Y90.868 E4.82993
G1 X118.803 Y90.868 E4.84535
G1 X125.359 Y84.312 E5.12455
G1 X125.788 Y84.213 E5.13779
G1 X126.070 Y84.114 E5.14678
G1 X119.316 Y90.868 E5.43442
G1 X119.828 Y90.868 E5.44984
G1 X127.000 Y83.695 E5.75529
G1 X127.481 Y83.390 E5.77243
G1 X127.971 Y82.995 E5.79140
G1 X128.414 Y82.546 E5.81037
G1 X128.803 Y82.051 E5.82935
G1 X129.001 Y81.730 E5.84071
G1 X129.262 Y81.780 E5.84870
G1 X129.262 Y81.946 E5.85368
G1 X120.340 Y90.868 E6.23363
G1 X120.852 Y90.868 E6.24906
G1 X129.262 Y82.458 E6.60719
G1 X129.262 Y82.970 E6.62261
G1 X121.364 Y90.868 E6.95894
G1 X121.876 Y90.868 E6.97436
G1 X129.262 Y83.482 E7.28888
G1 X129.262 Y83.995 E7.30430
G1 X122.389 Y90.868 E7.59700
G1 X122.901 Y90.868 E7.61242
G1 X129.262 Y84.507 E7.88331
G1 X129.262 Y85.019 E7.89874
G1 X123.413 Y90.868 E8.14782
G1 X123.925 Y90.868 E8.16324
G1 X129.262 Y85.531 E8.39051
G1 X129.262 Y86.043 E8.40593
G1 X124.437 Y90.868 E8.61139
G1 X124.949 Y90.868 E8.62681
G1 X129.385 Y86.432 E8.81570
G1 X129.897 Y86.432 E8.83112
G1 X125.461 Y90.868 E9.02000
G1 X125.974 Y90.868 E9.03543
G1 X130.409 Y86.432 E9.22431
G1 X130.921 Y86.432 E9.23973
G1 X126.486 Y90.868 E9.42862
G1 X126.998 Y90.868 E9.44404
G1 X131.433 Y86.432 E9.63293
G1 X131.945 Y86.432 E9.64835
G1 X127.510 Y90.868 E9.83723
G1 X128.022 Y90.868 E9.85266
G1 X132.458 Y86.432 E10.04154
G1 X132.970 Y86.432 E10.05696
G1 X128.534 Y90.868 E10.24585
G1 X129.047 Y90.868 E10.26127
G1 X133.482 Y86.432 E10.45016
G1 X133.994 Y86.432 E10.46558
G1 X129.559 Y90.868 E10.65446
G1 X130.071 Y90.868 E10.66989
G1 X134.506 Y86.432 E10.85877
G1 X135.018 Y86.432 E10.87419
G1 X130.583 Y90.868 E11.06308
G1 X131.095 Y90.868 E11.07850
G1 X135.531 Y86.432 E11.26739
G1 X136.043 Y86.432 E11.28281
G1 X131.607 Y90.868 E11.47169
G1 X132.120 Y90.868 E11.48712
G1 X136.555 Y86.432 E11.67600
G1 X137.067 Y86.432 E11.69142
G1 X132.632 Y90.868 E11.88031
G1 X133.144 Y90.868 E11.89573
G1 X137.579 Y86.432 E12.08461
G1 X138.091 Y86.432 E12.10004
G1 X133.656 Y90.868 E12.28892
G1 X134.168 Y90.868 E12.30434
G1 X138.604 Y86.432 E12.49323
G1 X139.056 Y86.432 E12.50684
G1 X139.056 Y86.492 E12.50865
G1 X134.680 Y90.868 E12.69498
G1 X135.193 Y90.868 E12.71040
G1 X139.056 Y87.005 E12.87491
G1 X139.056 Y87.517 E12.89034
G1 X135.705 Y90.868 E13.03304
G1 X136.217 Y90.868 E13.04846
G1 X139.056 Y88.029 E13.16935
G1 X139.056 Y88.541 E13.18477
G1 X136.729 Y90.868 E13.28385
G1 X137.241 Y90.868 E13.29927
G1 X139.056 Y89.053 E13.37654
G1 X139.056 Y89.565 E13.39197
G1 X137.753 Y90.868 E13.44742
G1 X138.266 Y90.868 E13.46285
G1 X139.056 Y90.078 E13.49649
G1 X139.056 Y90.590 E13.51191
G1 X138.778 Y90.868 E13.52375
G1 E11.52375 F1200.00000
G92 E0
G1 X114.706 Y90.868 F15000.000
G1 E2.00000 F1200.00000
G1 F4800.000
G1 X119.141 Y86.432 E2.18888
G1 X118.629 Y86.432 E2.20431
