; generated by Slic3r 1.3.1-dev (Build 24fc045) on 2023-07-03 at 10:07:39

; Print Config Notes: 
; TJH N0.4 S100
; 
; Filament notes: 
; Change log
; 
; v04->05
; Problem seperation at 03 layer height
; solution: rise temp to 210
; 
; v03->04
; problem: tail overhang was sloppy- not present in V01
; solution: cooling fan set to 100% 
; 
; 
; v02->03
; problem: slight layer sepration at top layers[SOLVED with these settings]
; 
; solution
; raised printing temp to 200 (from 190)
; cooling can set to half value (Max %50)
; 
; v01 -> v02
; problem: layer sepration at top layers
; 
; solution
; Removed cooling fan 
; [unchecked] cooling->enable auto cooling
; 
; v5->v6
; increased temp 215->225 layer seperation
; extrusion multiplier 1->1.1 
; 
; 
; 
; external perimeters extrusion width = 0.44mm (11.27mm^3/s)
; perimeters extrusion width = 0.48mm (12.57mm^3/s)
; infill extrusion width = 0.48mm (12.57mm^3/s)
; solid infill extrusion width = 0.48mm (12.57mm^3/s)
; top infill extrusion width = 0.48mm (10.05mm^3/s)

M107
G92 E0
M104 S220 ; set extruder temp
M140 S60 ; set bed temp
M190 S60 ; wait for bed temp
M109 S220 ; wait for extruder temp

G92 Z40; printer always finishes here
G28 X Y;Home
G1 X 20 F1000 ;
G1 Y 20 F1000 ;
G1 Z0.01 F400 ;
;Prime the extruder
G92 E0  ;reset extruder original: G1 F200 E3
G1 E3 F200 ;Prime extruder 3mm
G92 E0
G1 Z0 F400

; Filament gcode

G21 ; set units to millimeters
G90 ; use absolute coordinates
M82 ; use absolute distances for extrusion
G92 E0
G1 Z0.200 F15000.000
G1 E-2.00000 F1200.00000
G92 E0
G1 X84.432 Y71.840 F15000.000
G1 E2.00000 F1200.00000
G1 F2880.000
G1 X86.039 Y71.044 E2.05325
G1 X87.000 Y70.929 E2.08198
G1 X123.000 Y70.929 E3.15087
G1 X124.750 Y71.324 E3.20412
G1 X126.160 Y72.432 E3.25738
G1 X126.956 Y74.039 E3.31063
G1 X127.071 Y75.000 E3.33936
G1 X127.071 Y115.000 E4.52701
G1 X126.676 Y116.750 E4.58026
G1 X125.568 Y118.160 E4.63352
G1 X123.961 Y118.956 E4.68677
G1 X123.000 Y119.071 E4.71550
G1 X87.000 Y119.071 E5.78438
G1 X85.250 Y118.676 E5.83764
G1 X83.840 Y117.568 E5.89089
G1 X83.044 Y115.961 E5.94415
G1 X82.929 Y115.000 E5.97287
G1 X82.929 Y75.000 E7.16053
G1 X83.324 Y73.250 E7.21378
G1 X84.395 Y71.888 E7.26525
G1 X84.780 Y72.022 F15000.000
G1 F2880.000
G1 X87.000 Y71.286 E7.33468
G1 X123.000 Y71.286 E8.40357
G1 X124.666 Y71.680 E8.45440
G1 X125.978 Y72.780 E8.50524
G1 X126.714 Y75.000 E8.57467
G1 X126.714 Y115.000 E9.76232
G1 X126.320 Y116.666 E9.81316
G1 X125.220 Y117.978 E9.86399
G1 X123.000 Y118.714 E9.93342
G1 X87.000 Y118.714 E11.00231
G1 X85.334 Y118.320 E11.05315
G1 X84.022 Y117.220 E11.10398
G1 X83.286 Y115.000 E11.17341
G1 X83.286 Y75.000 E12.36106
G1 X83.680 Y73.334 E12.41190
G1 X84.742 Y72.068 E12.46095
G1 X85.127 Y72.214 F15000.000
G1 F2880.000
G1 X87.000 Y71.643 E12.51910
G1 X123.000 Y71.643 E13.58799
G1 X124.578 Y72.037 E13.63629
G1 X125.786 Y73.127 E13.68458
G1 X126.357 Y75.000 E13.74273
G1 X126.357 Y115.000 E14.93039
G1 X125.963 Y116.578 E14.97868
G1 X124.873 Y117.786 E15.02697
G1 X123.000 Y118.357 E15.08513
G1 X87.000 Y118.357 E16.15401
G1 X85.422 Y117.963 E16.20231
G1 X84.214 Y116.873 E16.25060
G1 X83.643 Y115.000 E16.30876
G1 X83.643 Y75.000 E17.49641
G1 X84.037 Y73.422 E17.54470
G1 X85.086 Y72.259 E17.59121
G1 E15.59121 F1200.00000
G92 E0
G1 X120.697 Y110.099 F15000.000
G1 E2.00000 F1200.00000
G1 F4800.000
G1 X120.314 Y110.514 E2.01676
G1 X119.869 Y110.861 E2.03352
G1 X119.373 Y111.129 E2.05027
G1 X118.839 Y111.313 E2.06703
G1 X118.282 Y111.406 E2.08379
G1 X117.718 Y111.406 E2.10055
G1 X117.161 Y111.313 E2.11730
G1 X116.627 Y111.129 E2.13406
G1 X116.131 Y110.861 E2.15082
G1 X115.686 Y110.514 E2.16758
G1 X115.303 Y110.099 E2.18433
G1 X114.995 Y109.626 E2.20109
G1 X114.768 Y109.110 E2.21785
G1 X114.629 Y108.562 E2.23461
G1 X114.583 Y108.000 E2.25136
G1 X114.629 Y107.438 E2.26812
G1 X114.768 Y106.890 E2.28488
G1 X114.995 Y106.374 E2.30164
G1 X115.303 Y105.901 E2.31839
G1 X115.686 Y105.486 E2.33515
G1 X116.131 Y105.139 E2.35191
G1 X116.627 Y104.871 E2.36867
G1 X117.161 Y104.687 E2.38543
G1 X117.718 Y104.594 E2.40218
G1 X118.282 Y104.594 E2.41894
G1 X118.839 Y104.687 E2.43570
G1 X119.373 Y104.871 E2.45246
G1 X119.869 Y105.139 E2.46921
G1 X120.314 Y105.486 E2.48597
G1 X120.697 Y105.901 E2.50273
G1 X121.005 Y106.374 E2.51949
G1 X121.232 Y106.890 E2.53624
G1 X121.371 Y107.438 E2.55300
G1 X121.417 Y108.000 E2.56976
G1 X121.371 Y108.562 E2.58652
G1 X121.232 Y109.110 E2.60327
G1 X121.005 Y109.626 E2.62003
G1 X120.730 Y110.049 E2.63501
G1 X120.414 Y109.879 F15000.000
G1 F4800.000
G1 X120.072 Y110.251 E2.65001
G1 X119.673 Y110.561 E2.66501
G1 X119.229 Y110.801 E2.68001
G1 X118.751 Y110.965 E2.69501
G1 X118.253 Y111.049 E2.71001
G1 X117.747 Y111.049 E2.72501
G1 X117.249 Y110.965 E2.74001
G1 X116.771 Y110.801 E2.75501
G1 X116.327 Y110.561 E2.77001
G1 X115.928 Y110.251 E2.78501
G1 X115.586 Y109.879 E2.80001
G1 X115.310 Y109.456 E2.81502
G1 X115.107 Y108.993 E2.83002
G1 X114.983 Y108.503 E2.84502
G1 X114.941 Y108.000 E2.86002
G1 X114.983 Y107.497 E2.87502
G1 X115.107 Y107.007 E2.89002
G1 X115.310 Y106.544 E2.90502
G1 X115.586 Y106.121 E2.92002
G1 X115.928 Y105.749 E2.93502
G1 X116.327 Y105.439 E2.95002
G1 X116.771 Y105.199 E2.96502
G1 X117.249 Y105.035 E2.98002
G1 X117.747 Y104.951 E2.99502
G1 X118.253 Y104.951 E3.01002
G1 X118.751 Y105.035 E3.02502
G1 X119.229 Y105.199 E3.04002
G1 X119.673 Y105.439 E3.05502
G1 X120.072 Y105.749 E3.07003
G1 X120.414 Y106.121 E3.08503
G1 X120.690 Y106.544 E3.10003
G1 X120.893 Y107.007 E3.11503
G1 X121.017 Y107.497 E3.13003
G1 X121.059 Y108.000 E3.14503
G1 X121.017 Y108.503 E3.16003
G1 X120.893 Y108.993 E3.17503
G1 X120.690 Y109.456 E3.19003
G1 X120.447 Y109.829 E3.20325
G1 X120.131 Y109.659 F15000.000
G1 F4800.000
G1 X119.829 Y109.987 E3.21649
G1 X119.477 Y110.261 E3.22974
G1 X119.085 Y110.473 E3.24298
G1 X118.663 Y110.618 E3.25622
G1 X118.223 Y110.691 E3.26947
G1 X117.777 Y110.691 E3.28271
G1 X117.337 Y110.618 E3.29595
G1 X116.915 Y110.473 E3.30920
G1 X116.523 Y110.261 E3.32244
G1 X116.171 Y109.987 E3.33568
G1 X115.869 Y109.659 E3.34893
G1 X115.625 Y109.285 E3.36217
G1 X115.446 Y108.877 E3.37542
G1 X115.336 Y108.445 E3.38866
G1 X115.299 Y108.000 E3.40190
G1 X115.336 Y107.555 E3.41515
G1 X115.446 Y107.123 E3.42839
G1 X115.625 Y106.715 E3.44163
G1 X115.869 Y106.341 E3.45488
G1 X116.171 Y106.013 E3.46812
G1 X116.523 Y105.739 E3.48136
G1 X116.915 Y105.527 E3.49461
G1 X117.337 Y105.382 E3.50785
G1 X117.777 Y105.309 E3.52109
G1 X118.223 Y105.309 E3.53434
G1 X118.663 Y105.382 E3.54758
G1 X119.085 Y105.527 E3.56083
G1 X119.477 Y105.739 E3.57407
G1 X119.829 Y106.013 E3.58731
G1 X120.131 Y106.341 E3.60056
G1 X120.375 Y106.715 E3.61380
G1 X120.554 Y107.123 E3.62704
G1 X120.664 Y107.555 E3.64029
G1 X120.701 Y108.000 E3.65353
G1 X120.664 Y108.445 E3.66677
G1 X120.554 Y108.877 E3.68002
G1 X120.375 Y109.285 E3.69326
G1 X120.164 Y109.609 E3.70472
G1 X120.131 Y109.659 F15000.000
G1 E1.70472 F1200.00000
G92 E0
G1 X95.417 Y108.000 F15000.000
G1 E2.00000 F1200.00000
G1 F4800.000
G1 X95.367 Y108.608 E2.01810
G1 X95.229 Y109.117 E2.03376
G1 X95.005 Y109.626 E2.05029
G1 X94.697 Y110.099 E2.06705
G1 X94.314 Y110.514 E2.08381
G1 X93.869 Y110.861 E2.10056
G1 X93.373 Y111.129 E2.11732
G1 X92.839 Y111.313 E2.13408
G1 X92.282 Y111.406 E2.15084
G1 X91.718 Y111.406 E2.16759
G1 X91.161 Y111.313 E2.18435
G1 X90.627 Y111.129 E2.20111
G1 X90.131 Y110.861 E2.21787
G1 X89.686 Y110.514 E2.23462
G1 X89.303 Y110.099 E2.25138
G1 X88.995 Y109.626 E2.26814
G1 X88.768 Y109.110 E2.28490
G1 X88.629 Y108.562 E2.30165
G1 X88.583 Y108.000 E2.31841
G1 X88.629 Y107.438 E2.33517
G1 X88.768 Y106.890 E2.35193
G1 X88.995 Y106.374 E2.36869
G1 X89.303 Y105.901 E2.38544
G1 X89.686 Y105.486 E2.40220
G1 X90.131 Y105.139 E2.41896
G1 X90.627 Y104.871 E2.43572
G1 X91.161 Y104.687 E2.45247
G1 X91.718 Y104.594 E2.46923
G1 X92.282 Y104.594 E2.48599
G1 X92.839 Y104.687 E2.50275
G1 X93.373 Y104.871 E2.51950
G1 X93.869 Y105.139 E2.53626
G1 X94.314 Y105.486 E2.55302
G1 X94.697 Y105.901 E2.56978
G1 X95.005 Y106.374 E2.58653
G1 X95.232 Y106.890 E2.60329
G1 X95.371 Y107.438 E2.62005
G1 X95.412 Y107.940 E2.63503
G1 X95.059 Y108.000 F15000.000
G1 F4800.000
G1 X95.014 Y108.546 E2.65128
G1 X94.891 Y108.997 E2.66518
G1 X94.690 Y109.456 E2.68004
G1 X94.414 Y109.879 E2.69505
G1 X94.072 Y110.251 E2.71005
G1 X93.673 Y110.561 E2.72505
G1 X93.229 Y110.801 E2.74005
G1 X92.751 Y110.965 E2.75505
G1 X92.253 Y111.049 E2.77005
G1 X91.747 Y111.049 E2.78505
G1 X91.249 Y110.965 E2.80005
G1 X90.771 Y110.801 E2.81505
G1 X90.327 Y110.561 E2.83005
G1 X89.928 Y110.251 E2.84505
G1 X89.586 Y109.879 E2.86005
G1 X89.310 Y109.456 E2.87505
G1 X89.107 Y108.993 E2.89005
G1 X88.983 Y108.503 E2.90505
G1 X88.941 Y108.000 E2.92005
G1 X88.983 Y107.497 E2.93505
G1 X89.107 Y107.007 E2.95006
G1 X89.310 Y106.544 E2.96506
G1 X89.586 Y106.121 E2.98006
G1 X89.928 Y105.749 E2.99506
G1 X90.327 Y105.439 E3.01006
G1 X90.771 Y105.199 E3.02506
G1 X91.249 Y105.035 E3.04006
G1 X91.747 Y104.951 E3.05506
G1 X92.253 Y104.951 E3.07006
G1 X92.751 Y105.035 E3.08506
G1 X93.229 Y105.199 E3.10006
G1 X93.673 Y105.439 E3.11506
G1 X94.072 Y105.749 E3.13006
G1 X94.414 Y106.121 E3.14506
G1 X94.690 Y106.544 E3.16006
G1 X94.893 Y107.007 E3.17506
G1 X95.017 Y107.497 E3.19006
G1 X95.054 Y107.940 E3.20328
G1 X94.701 Y108.000 F15000.000
G1 F4800.000
G1 X94.661 Y108.484 E3.21770
G1 X94.554 Y108.878 E3.22984
G1 X94.375 Y109.285 E3.24303
G1 X94.131 Y109.659 E3.25627
G1 X93.829 Y109.987 E3.26952
G1 X93.477 Y110.261 E3.28276
G1 X93.085 Y110.473 E3.29601
G1 X92.663 Y110.618 E3.30925
G1 X92.223 Y110.691 E3.32249
G1 X91.777 Y110.691 E3.33574
G1 X91.337 Y110.618 E3.34898
G1 X90.915 Y110.473 E3.36222
G1 X90.523 Y110.261 E3.37547
G1 X90.171 Y109.987 E3.38871
G1 X89.869 Y109.659 E3.40195
G1 X89.625 Y109.285 E3.41520
G1 X89.446 Y108.877 E3.42844
G1 X89.336 Y108.445 E3.44168
G1 X89.299 Y108.000 E3.45493
G1 X89.336 Y107.555 E3.46817
G1 X89.446 Y107.123 E3.48142
G1 X89.625 Y106.715 E3.49466
G1 X89.869 Y106.341 E3.50790
G1 X90.171 Y106.013 E3.52115
G1 X90.523 Y105.739 E3.53439
G1 X90.915 Y105.527 E3.54763
G1 X91.337 Y105.382 E3.56088
G1 X91.777 Y105.309 E3.57412
G1 X92.223 Y105.309 E3.58736
G1 X92.663 Y105.382 E3.60061
G1 X93.085 Y105.527 E3.61385
G1 X93.477 Y105.739 E3.62709
G1 X93.829 Y106.013 E3.64034
G1 X94.131 Y106.341 E3.65358
G1 X94.375 Y106.715 E3.66683
G1 X94.554 Y107.123 E3.68007
G1 X94.664 Y107.555 E3.69331
G1 X94.696 Y107.940 E3.70477
G1 X94.701 Y108.000 F15000.000
G1 E1.70477 F1200.00000
G92 E0
G1 X92.282 Y85.406 F15000.000
G1 E2.00000 F1200.00000
G1 F4800.000
G1 X91.718 Y85.406 E2.01676
G1 X91.161 Y85.313 E2.03352
G1 X90.627 Y85.129 E2.05027
G1 X90.131 Y84.861 E2.06703
G1 X89.686 Y84.514 E2.08379
G1 X89.303 Y84.099 E2.10055
G1 X88.995 Y83.626 E2.11730
G1 X88.768 Y83.110 E2.13406
G1 X88.629 Y82.562 E2.15082
G1 X88.583 Y82.000 E2.16758
G1 X88.629 Y81.438 E2.18433
G1 X88.768 Y80.890 E2.20109
G1 X88.995 Y80.374 E2.21785
G1 X89.303 Y79.901 E2.23461
G1 X89.686 Y79.486 E2.25136
G1 X90.131 Y79.139 E2.26812
G1 X90.627 Y78.871 E2.28488
G1 X91.161 Y78.687 E2.30164
G1 X91.718 Y78.594 E2.31839
G1 X92.282 Y78.594 E2.33515
G1 X92.839 Y78.687 E2.35191
G1 X93.373 Y78.871 E2.36867
G1 X93.869 Y79.139 E2.38543
G1 X94.314 Y79.486 E2.40218
G1 X94.697 Y79.901 E2.41894
G1 X95.005 Y80.374 E2.43570
G1 X95.232 Y80.890 E2.45246
G1 X95.371 Y81.438 E2.46921
G1 X95.417 Y82.000 E2.48597
G1 X95.371 Y82.562 E2.50273
G1 X95.232 Y83.110 E2.51949
G1 X95.005 Y83.626 E2.53624
G1 X94.697 Y84.099 E2.55300
G1 X94.314 Y84.514 E2.56976
G1 X93.869 Y84.861 E2.58652
G1 X93.373 Y85.129 E2.60327
G1 X92.839 Y85.313 E2.62003
G1 X92.341 Y85.396 E2.63501
G1 X92.253 Y85.049 F15000.000
G1 F4800.000
G1 X91.747 Y85.049 E2.65001
G1 X91.249 Y84.965 E2.66501
G1 X90.771 Y84.801 E2.68001
G1 X90.327 Y84.561 E2.69501
G1 X89.928 Y84.251 E2.71001
G1 X89.586 Y83.879 E2.72501
G1 X89.310 Y83.456 E2.74001
G1 X89.107 Y82.993 E2.75501
G1 X88.983 Y82.503 E2.77001
G1 X88.941 Y82.000 E2.78501
G1 X88.983 Y81.497 E2.80001
G1 X89.107 Y81.007 E2.81502
G1 X89.310 Y80.544 E2.83002
G1 X89.586 Y80.121 E2.84502
G1 X89.928 Y79.749 E2.86002
G1 X90.327 Y79.439 E2.87502
G1 X90.771 Y79.199 E2.89002
G1 X91.249 Y79.035 E2.90502
G1 X91.747 Y78.951 E2.92002
G1 X92.253 Y78.951 E2.93502
G1 X92.751 Y79.035 E2.95002
G1 X93.229 Y79.199 E2.96502
G1 X93.673 Y79.439 E2.98002
G1 X94.072 Y79.749 E2.99502
G1 X94.414 Y80.121 E3.01002
G1 X94.690 Y80.544 E3.02502
G1 X94.893 Y81.007 E3.04002
G1 X95.017 Y81.497 E3.05502
G1 X95.059 Y82.000 E3.07003
G1 X95.017 Y82.503 E3.08503
G1 X94.893 Y82.993 E3.10003
G1 X94.690 Y83.456 E3.11503
G1 X94.414 Y83.879 E3.13003
G1 X94.072 Y84.251 E3.14503
G1 X93.673 Y84.561 E3.16003
G1 X93.229 Y84.801 E3.17503
G1 X92.751 Y84.965 E3.19003
G1 X92.312 Y85.039 E3.20325
G1 X92.223 Y84.691 F15000.000
G1 F4800.000
G1 X91.777 Y84.691 E3.21649
G1 X91.337 Y84.618 E3.22974
G1 X90.915 Y84.473 E3.24298
G1 X90.523 Y84.261 E3.25622
G1 X90.171 Y83.987 E3.26947
G1 X89.869 Y83.659 E3.28271
G1 X89.625 Y83.285 E3.29595
G1 X89.446 Y82.877 E3.30920
G1 X89.336 Y82.445 E3.32244
G1 X89.299 Y82.000 E3.33568
G1 X89.336 Y81.555 E3.34893
G1 X89.446 Y81.123 E3.36217
G1 X89.625 Y80.715 E3.37542
G1 X89.869 Y80.341 E3.38866
G1 X90.171 Y80.013 E3.40190
G1 X90.523 Y79.739 E3.41515
G1 X90.915 Y79.527 E3.42839
G1 X91.337 Y79.382 E3.44163
G1 X91.777 Y79.309 E3.45488
G1 X92.223 Y79.309 E3.46812
G1 X92.663 Y79.382 E3.48136
G1 X93.085 Y79.527 E3.49461
G1 X93.477 Y79.739 E3.50785
G1 X93.829 Y80.013 E3.52109
G1 X94.131 Y80.341 E3.53434
G1 X94.375 Y80.715 E3.54758
G1 X94.554 Y81.123 E3.56083
G1 X94.664 Y81.555 E3.57407
G1 X94.701 Y82.000 E3.58731
G1 X94.664 Y82.445 E3.60056
G1 X94.554 Y82.877 E3.61380
G1 X94.375 Y83.285 E3.62704
G1 X94.131 Y83.659 E3.64029
G1 X93.829 Y83.987 E3.65353
G1 X93.477 Y84.261 E3.66677
G1 X93.085 Y84.473 E3.68002
G1 X92.663 Y84.618 E3.69326
G1 X92.282 Y84.682 E3.70472
G1 X92.223 Y84.691 F15000.000
G1 E1.70472 F1200.00000
G92 E0
G1 X114.629 Y82.562 F15000.000
G1 E2.00000 F1200.00000
G1 F4800.000
G1 X114.583 Y82.000 E2.01676
G1 X114.629 Y81.438 E2.03352
G1 X114.768 Y80.890 E2.05027
G1 X114.995 Y80.374 E2.06703
G1 X115.303 Y79.901 E2.08379
G1 X115.686 Y79.486 E2.10055
G1 X116.131 Y79.139 E2.11730
G1 X116.627 Y78.871 E2.13406
G1 X117.161 Y78.687 E2.15082
G1 X117.718 Y78.594 E2.16758
G1 X118.282 Y78.594 E2.18433
G1 X118.839 Y78.687 E2.20109
G1 X119.373 Y78.871 E2.21785
G1 X119.869 Y79.139 E2.23461
G1 X120.314 Y79.486 E2.25136
G1 X120.697 Y79.901 E2.26812
G1 X121.005 Y80.374 E2.28488
G1 X121.232 Y80.890 E2.30164
G1 X121.371 Y81.438 E2.31839
G1 X121.417 Y82.000 E2.33515
G1 X121.371 Y82.562 E2.35191
G1 X121.232 Y83.110 E2.36867
G1 X121.005 Y83.626 E2.38543
G1 X120.697 Y84.099 E2.40218
G1 X120.314 Y84.514 E2.41894
G1 X119.869 Y84.861 E2.43570
G1 X119.373 Y85.129 E2.45246
G1 X118.839 Y85.313 E2.46921
G1 X118.282 Y85.406 E2.48597
G1 X117.718 Y85.406 E2.50273
G1 X117.161 Y85.313 E2.51949
G1 X116.627 Y85.129 E2.53624
G1 X116.131 Y84.861 E2.55300
G1 X115.686 Y84.514 E2.56976
G1 X115.303 Y84.099 E2.58652
G1 X114.995 Y83.626 E2.60327
G1 X114.768 Y83.110 E2.62003
G1 X114.644 Y82.621 E2.63501
G1 X114.983 Y82.503 F15000.000
G1 F4800.000
G1 X114.941 Y82.000 E2.65001
G1 X114.983 Y81.497 E2.66501
G1 X115.107 Y81.007 E2.68001
G1 X115.310 Y80.544 E2.69501
G1 X115.586 Y80.121 E2.71001
G1 X115.928 Y79.749 E2.72501
G1 X116.327 Y79.439 E2.74001
G1 X116.771 Y79.199 E2.75501
G1 X117.249 Y79.035 E2.77001
G1 X117.747 Y78.951 E2.78501
G1 X118.253 Y78.951 E2.80001
G1 X118.751 Y79.035 E2.81502
G1 X119.229 Y79.199 E2.83002
G1 X119.673 Y79.439 E2.84502
G1 X120.072 Y79.749 E2.86002
G1 X120.414 Y80.121 E2.87502
G1 X120.690 Y80.544 E2.89002
G1 X120.893 Y81.007 E2.90502
G1 X121.017 Y81.497 E2.92002
G1 X121.059 Y82.000 E2.93502
G1 X121.017 Y82.503 E2.95002
G1 X120.893 Y82.993 E2.96502
G1 X120.690 Y83.456 E2.98002
G1 X120.414 Y83.879 E2.99502
G1 X120.072 Y84.251 E3.01002
G1 X119.673 Y84.561 E3.02502
G1 X119.229 Y84.801 E3.04002
G1 X118.751 Y84.965 E3.05502
G1 X118.253 Y85.049 E3.07003
G1 X117.747 Y85.049 E3.08503
G1 X117.249 Y84.965 E3.10003
G1 X116.771 Y84.801 E3.11503
