; LightBurn 1.4.00
; GRBL device profile, current position
; Bounds: X28.72 Y16.69 to X56.56 Y46.79
G00 G17 G40 G21 G54
G91
M4
; Scan @ 200 mm/sec, 20% power
M9
G0 X53.039Y46.795
M3
; Layer C00
G1 X-5F12000S0
G1 X-0.246S20
G1 X-5S0
G1 X-0.258Y-0.1S0
G1 X5S0
G1 X0.61S20
G1 X5S0
G1 X0.165Y-0.1S0
G1 X-5S0
G1 X-1.134S20
G1 X-5S0
G1 X-0.704Y-0.1S0
G1 X5S0
G1 X2.066S20
G1 X5S0
G1 X0.47Y-0.1S0
G1 X-5S0
G1 X-6.1S20
G1 X-5S0
G1 X-0.044Y-0.1S0
G1 X5S0
G1 X6.338S20
G1 X5S0
G1 X0.044Y-0.1S0
G1 X-5S0
G1 X-5.715S20
G1 X-5S0
G1 X0.673Y-0.1S0
G1 X5S0
G1 X5.085S20
G1 X5S0
G1 X0.044Y-0.1S0
G1 X-5S0
G1 X-4.408S20
G1 X-5S0
G1 X0.721Y-0.1S0
G1 X5S0
G1 X3.73S20
G1 X5S0
G1 X0.044Y-0.1S0
G1 X-5S0
G1 X-2.807S20
G1 X-5S0
G1 X1.984Y-8S0
G1 X5S0
G1 X0.216S20
G1 X5S0
G1 X2.265Y-0.1S0
G1 X-5S0
G1 X-0.682S20
G1 X-1.134S0
G1 X-0.566S20
G1 X-5S0
G1 X0.099Y-0.1S0
G1 X5S0
G1 X2.472S20
G1 X5S0
G1 X0.124Y-0.1S0
G1 X-5S0
G1 X-2.488S20
G1 X-5S0
G1 X0.112Y-0.1S0
G1 X5S0
G1 X2.463S20
G1 X5S0
G1 X0.058Y-0.1S0
G1 X-5S0
G1 X-2.41S20
G1 X-5S0
G1 X0.131Y-0.1S0
G1 X5S0
G1 X2.307S20
G1 X5S0
G1 X-0.009Y-0.1S0
G1 X-5S0
G1 X-2.162S20
G1 X-5S0
G1 X0.149Y-0.1S0
G1 X5S0
G1 X1.926S20
G1 X5S0
G1 X-0.171Y-0.1S0
G1 X-5S0
G1 X-1.567S20
G1 X-5S0
G1 X0.232Y-0.1S0
G1 X5S0
G1 X1.113S20
G1 X5S0
G1 X-0.423Y-0.1S0
G1 X-5S0
G1 X-0.052S20
G1 X-5S0
G1 X-8.525Y-8.3S0
G1 X5S0
G1 X0.061S20
G1 X5S0
G1 X0.055Y-0.1S0
G1 X-5S0
G1 X-0.764S20
G1 X-5S0
G1 X-0.37Y-0.1S0
G1 X5S0
G1 X1.189S20
G1 X5S0
G1 X0.055Y-0.1S0
G1 X-5S0
G1 X-1.587S20
G1 X-5S0
G1 X-0.257Y-0.1S0
G1 X5S0
G1 X1.899S20
G1 X5S0
G1 X0.055Y-0.1S0
G1 X-5S0
G1 X-2.211S20
G1 X-5S0
G1 X-0.217Y-0.1S0
G1 X5S0
G1 X2.483S20
G1 X5S0
G1 X0.045Y-0.1S0
G1 X-5S0
G1 X-2.726S20
G1 X-5S0
G1 X-0.198Y-0.1S0
G1 X5S0
G1 X2.967S20
G1 X5S0
G1 X0.043Y-0.1S0
G1 X-5S0
G1 X-3.191S20
G1 X-5S0
G1 X-0.162Y-0.1S0
G1 X5S0
G1 X3.396S20
G1 X5S0
G1 X0.042Y-0.1S0
G1 X-5S0
G1 X-3.6S20
G1 X-5S0
G1 X-0.162Y-0.1S0
G1 X5S0
G1 X3.805S20
G1 X5S0
G1 X0.039Y-0.1S0
G1 X-5S0
G1 X-3.991S20
G1 X-5S0
G1 X-0.138Y-0.1S0
G1 X5S0
G1 X4.16S20
G1 X5S0
G1 X0.031Y-0.1S0
G1 X-5S0
G1 X-4.328S20
G1 X-5S0
G1 X-0.137Y-0.1S0
G1 X5S0
G1 X4.496S20
G1 X5S0
G1 X0.022Y-0.1S0
G1 X-5S0
G1 X-4.654S20
G1 X-5S0
G1 X-0.12Y-0.1S0
G1 X5S0
G1 X4.796S20
G1 X5S0
G1 X0.022Y-0.1S0
G1 X-5S0
G1 X-4.938S20
G1 X-5S0
G1 X-0.12Y-0.1S0
G1 X5S0
G1 X5.074S20
G1 X1.775S0
G1 X0.459S20
G1 X5S0
G1 X0.822Y-0.1S0
G1 X-5S0
G1 X-1.902S20
G1 X-1.142S0
G1 X-5.205S20
G1 X-5S0
G1 X-0.12Y-0.1S0
G1 X5S0
G1 X5.337S20
G1 X0.804S0
G1 X2.607S20
G1 X5S0
G1 X-0.958Y-0.1S0
G1 X-5S0
G1 X-1.869S20
G1 X-0.573S0
G1 X-5.454S20
G1 X-5S0
G1 X-0.107Y-0.1S0
G1 X5S0
G1 X5.563S20
G1 X0.373S0
G1 X1.521S20
G1 X5S0
G1 X-0.276Y-0.1S0
G1 X-5S0
G1 X-1.396S20
G1 X-0.22S0
G1 X-5.672S20
G1 X-5S0
G1 X-0.107Y-0.1S0
G1 X5S0
G1 X5.781S20
G1 X0.067S0
G1 X1.347S20
G1 X5S0
G1 X-0.162Y-0.1S0
G1 X-5S0
G1 X-7.14S20
G1 X-5S0
G1 X0.231Y-0.1S0
G1 X5S0
G1 X6.782S20
G1 X5S0
G1 X-0.1Y-0.1S0
G1 X-5S0
G1 X-6.109S20
G1 X-5S0
G1 X0.573Y-0.1S0
G1 X5S0
G1 X5.45S20
G1 X5S0
G1 X-0.068Y-0.1S0
G1 X-5S0
G1 X-4.652S20
G1 X-5S0
G1 X0.757Y-0.1S0
G1 X5S0
G1 X3.836S20
G1 X5S0
G1 X-0.051Y-0.1S0
G1 X-5S0
G1 X-2.722S20
G1 X-5S0
G1 X7.294Y-4.6S0
G1 X5S0
G1 X0.12S20
G1 X5S0
G1 X0.028Y-0.1S0
G1 X-5S0
G1 X-0.312S20
G1 X-5S0
G1 X-0.164Y-0.1S0
G1 X5S0
G1 X0.503S20
G1 X5S0
G1 X0.028Y-0.1S0
G1 X-5S0
G1 X-0.695S20
G1 X-5S0
G1 X-0.163Y-0.1S0
G1 X5S0
G1 X0.886S20
G1 X5S0
G1 X0.028Y-0.1S0
G1 X-5S0
G1 X-1.078S20
G1 X-5S0
G1 X-0.191Y-0.1S0
G1 X5S0
G1 X1.296S20
G1 X5S0
G1 X0.028Y-0.1S0
G1 X-5S0
G1 X-1.519S20
G1 X-5S0
G1 X-0.195Y-0.1S0
G1 X5S0
G1 X1.742S20
G1 X5S0
G1 X0.028Y-0.1S0
G1 X-5S0
G1 X-1.964S20
G1 X-12.85S0
G1 X-0.145S20
G1 X-5S0
G1 X0.166Y-0.1S0
G1 X5S0
G1 X0.289S20
G1 X12.342S0
G1 X2.19S20
G1 X5S0
G1 X0.027Y-0.1S0
G1 X-5S0
G1 X-2.454S20
G1 X-11.793S0
G1 X-0.436S20
G1 X-5S0
G1 X0.166Y-0.1S0
G1 X5S0
G1 X0.608S20
G1 X11.218S0
G1 X2.719S20
G1 X5S0
G1 X0.028Y-0.1S0
G1 X-5S0
G1 X-2.984S20
G1 X-10.643S0
G1 X-0.781S20
G1 X-5S0
G1 X0.166Y-0.1S0
G1 X5S0
G1 X0.966S20
G1 X10.047S0
G1 X3.257S20
G1 X5S0
G1 X0.027Y-0.1S0
G1 X-5S0
G1 X-3.583S20
G1 X-9.369S0
G1 X-1.18S20
G1 X-5S0
G1 X0.166Y-0.1S0
G1 X5S0
G1 X1.393S20
G1 X8.691S0
G1 X3.91S20
G1 X5S0
G1 X0.028Y-0.1S0
G1 X-5S0
G1 X-4.237S20
G1 X-7.959S0
G1 X-1.657S20
G1 X-5S0
G1 X0.18Y-0.1S0
G1 X5S0
G1 X1.918S20
G1 X7.121S0
G1 X4.662S20
G1 X5S0
G1 X0.028Y-0.1S0
G1 X-5S0
G1 X-5.086S20
G1 X-6.207S0
G1 X-2.257S20
G1 X-5S0
G1 X0.179Y-0.1S0
G1 X5S0
G1 X2.632S20
G1 X5.142S0
G1 X5.534S20
G1 X5S0
G1 X-0.216Y-0.1S0
G1 X-5S0
G1 X-5.9S20
G1 X-3.833S0
G1 X-3.179S20
G1 X-5S0
G1 X0.179Y-0.1S0
G1 X5S0
G1 X4.104S20
G1 X1.61S0
G1 X6.802S20
G1 X5S0
G1 X-0.216Y-0.1S0
G1 X-5S0
G1 X-12.121S20
G1 X-5S0
G1 X0.18Y-0.1S0
G1 X5S0
G1 X11.706S20
G1 X5S0
G1 X-0.235Y-0.1S0
G1 X-5S0
G1 X-11.29S20
G1 X-5S0
G1 X0.208Y-0.1S0
G1 X5S0
G1 X10.847S20
G1 X5S0
G1 X-0.256Y-0.1S0
G1 X-5S0
G1 X-10.383S20
G1 X-5S0
G1 X0.208Y-0.1S0
G1 X5S0
G1 X9.918S20
G1 X5S0
G1 X-0.267Y-0.1S0
G1 X-5S0
G1 X-9.429S20
G1 X-5S0
G1 X0.243Y-0.1S0
G1 X5S0
G1 X8.901S20
G1 X5S0
G1 X-0.285Y-0.1S0
G1 X-5S0
G1 X-8.372S20
G1 X-5S0
G1 X0.25Y-0.1S0
G1 X5S0
G1 X7.801S20
G1 X5S0
G1 X-0.322Y-0.1S0
G1 X-5S0
G1 X-7.177S20
G1 X-5S0
G1 X0.302Y-0.1S0
G1 X5S0
G1 X6.506S20
G1 X5S0
G1 X-0.393Y-0.1S0
G1 X-5S0
G1 X-5.772S20
G1 X-5S0
G1 X0.41Y-0.1S0
G1 X5S0
G1 X4.927S20
G1 X5S0
G1 X-0.533Y-0.1S0
G1 X-5S0
G1 X-3.927S20
G1 X-5S0
G1 X0.652Y-0.1S0
G1 X5S0
G1 X2.564S20
G1 X5S0
M9
G1 S0
M5
; return to starting pos
G0 X-48.11Y-16.695
M2
