; LightBurn 1.4.00
; GRBL device profile, current position
; Bounds: X87.22 Y44.37 to X140.12 Y125.07
G00 G17 G40 G21 G54
G91
M4
; Scan @ 100 mm/sec, 20% power
M9
G0 X130.511Y125.067
M3
; Layer C00
G1 X-2.5F12000S0
G1 X-0.055F6000S20
G1 X-2.5F12000S0
G1 X-0.216Y-0.1F6000S0
G1 X2.5F12000S0
G1 X0.362F6000S20
G1 X2.5F12000S0
G1 X0.092Y-0.1F6000S0
G1 X-2.5F12000S0
G1 X-0.669F6000S20
G1 X-2.5F12000S0
G1 X-0.215Y-0.1F6000S0
G1 X2.5F12000S0
G1 X0.982F6000S20
G1 X2.5F12000S0
G1 X0.124Y-0.1F6000S0
G1 X-2.5F12000S0
G1 X-1.394F6000S20
G1 X-2.5F12000S0
G1 X-0.293Y-0.1F6000S0
G1 X2.5F12000S0
G1 X1.81F6000S20
G1 X2.5F12000S0
G1 X0.151Y-0.1F6000S0
G1 X-2.5F12000S0
G1 X-2.294F6000S20
G1 X-2.5F12000S0
G1 X-0.406Y-0.1F6000S0
G1 X2.5F12000S0
G1 X2.866F6000S20
G1 X2.5F12000S0
G1 X0.194Y-0.1F6000S0
G1 X-2.5F12000S0
G1 X-3.533F6000S20
G1 X-2.5F12000S0
G1 X-0.581Y-0.1F6000S0
G1 X2.5F12000S0
G1 X4.336F6000S20
G1 X2.5F12000S0
G1 X0.281Y-0.1F6000S0
G1 X-2.5F12000S0
G1 X-5.47F6000S20
G1 X-2.5F12000S0
G1 X-1.731Y-0.1S0
G1 X2.5S0
G1 X7.541F6000S20
G1 X2.5F12000S0
G1 X0.464Y-0.1F6000S0
G1 X-2.5F12000S0
G1 X-15.381F6000S20
G1 X-2.5F12000S0
G1 X-1.035Y-0.1S0
G1 X2.5S0
G1 X17.191F6000S20
G1 X2.5F12000S0
G1 X0.132Y-0.1F6000S0
G1 X-2.5F12000S0
G1 X-17.666F6000S20
G1 X-2.5F12000S0
G1 X0.668Y-0.1F6000S0
G1 X2.5F12000S0
G1 X17.042F6000S20
G1 X2.5F12000S0
G1 X0.043Y-0.1F6000S0
G1 X-2.5F12000S0
G1 X-16.418F6000S20
G1 X-2.5F12000S0
G1 X0.668Y-0.1F6000S0
G1 X2.5F12000S0
G1 X15.794F6000S20
G1 X2.5F12000S0
G1 X0.043Y-0.1F6000S0
G1 X-2.5F12000S0
G1 X-15.17F6000S20
G1 X-2.5F12000S0
G1 X0.668Y-0.1F6000S0
G1 X2.5F12000S0
G1 X14.546F6000S20
G1 X2.5F12000S0
G1 X0.043Y-0.1F6000S0
G1 X-2.5F12000S0
G1 X-13.921F6000S20
G1 X-2.5F12000S0
G1 X0.706Y-0.1F6000S0
G1 X2.5F12000S0
G1 X13.259F6000S20
G1 X2.5F12000S0
G1 X0.043Y-0.1F6000S0
G1 X-2.5F12000S0
G1 X-12.581F6000S20
G1 X-2.5F12000S0
G1 X0.721Y-0.1F6000S0
G1 X2.5F12000S0
G1 X11.904F6000S20
G1 X2.5F12000S0
G1 X0.044Y-0.1F6000S0
G1 X-2.5F12000S0
G1 X-11.227F6000S20
G1 X-2.5F12000S0
G1 X0.721Y-0.1F6000S0
G1 X2.5F12000S0
G1 X10.549F6000S20
G1 X2.5F12000S0
G1 X0.044Y-0.1F6000S0
G1 X-2.5F12000S0
G1 X-9.873F6000S20
G1 X-2.5F12000S0
G1 X0.849Y-0.1F6000S0
G1 X2.5F12000S0
G1 X9.067F6000S20
G1 X2.5F12000S0
G1 X0.044Y-0.1F6000S0
G1 X-2.5F12000S0
G1 X-8.097F6000S20
G1 X-2.5F12000S0
G1 X1.272Y-0.1S0
G1 X2.5S0
G1 X6.286F6000S20
G1 X2.5F12000S0
G1 X-2.006Y-0.1S0
G1 X-2.5S0
G1 X-2.012F6000S20
G1 X-2.5F12000S0
G1 X2.182Y-21S0
G1 X2.5S0
G1 X0.102F6000S20
G1 X2.5F12000S0
G1 X0.303Y-0.1F6000S0
G1 X-2.5F12000S0
G1 X-0.306F6000S20
G1 X-2.5F12000S0
G1 X0.099Y-0.1F6000S0
G1 X2.5F12000S0
G1 X0.548F6000S20
G1 X2.5F12000S0
G1 X0.376Y-0.1F6000S0
G1 X-2.5F12000S0
G1 X-0.825F6000S20
G1 X-2.5F12000S0
G1 X0.099Y-0.1F6000S0
G1 X2.5F12000S0
G1 X1.174F6000S20
G1 X4.154F12000S0
G1 X0.855F6000S20
G1 X2.5F12000S0
G1 X0.308Y-0.1F6000S0
G1 X-2.5F12000S0
G1 X-2.263F6000S20
G1 X-2.45F12000S0
G1 X-1.679F6000S20
G1 X-2.5F12000S0
G1 X0.099Y-0.1F6000S0
G1 X2.5F12000S0
G1 X6.494F6000S20
G1 X2.5F12000S0
G1 X0.189Y-0.1F6000S0
G1 X-2.5F12000S0
G1 X-6.585F6000S20
G1 X-2.5F12000S0
G1 X0.099Y-0.1F6000S0
G1 X2.5F12000S0
G1 X6.62F6000S20
G1 X2.5F12000S0
G1 X0.135Y-0.1F6000S0
G1 X-2.5F12000S0
G1 X-6.644F6000S20
G1 X-2.5F12000S0
G1 X0.112Y-0.1F6000S0
G1 X2.5F12000S0
G1 X6.64F6000S20
G1 X2.5F12000S0
G1 X0.093Y-0.1F6000S0
G1 X-2.5F12000S0
G1 X-6.622F6000S20
G1 X-2.5F12000S0
G1 X0.112Y-0.1F6000S0
G1 X2.5F12000S0
G1 X6.603F6000S20
G1 X2.5F12000S0
G1 X0.067Y-0.1F6000S0
G1 X-2.5F12000S0
G1 X-6.559F6000S20
G1 X-2.5F12000S0
G1 X0.112Y-0.1F6000S0
G1 X2.5F12000S0
G1 X6.507F6000S20
G1 X2.5F12000S0
G1 X0.06Y-0.1F6000S0
G1 X-2.5F12000S0
G1 X-6.455F6000S20
G1 X-2.5F12000S0
G1 X0.111Y-0.1F6000S0
G1 X2.5F12000S0
G1 X6.379F6000S20
G1 X2.5F12000S0
G1 X0.028Y-0.1F6000S0
G1 X-2.5F12000S0
G1 X-6.278F6000S20
G1 X-2.5F12000S0
G1 X0.128Y-0.1F6000S0
G1 X2.5F12000S0
G1 X6.179F6000S20
G1 X2.5F12000S0
G1 Y-0.1F6000S0
G1 X-2.496F12000S0
G1 X-6.055F6000S20
G1 X-2.5F12000S0
G1 X0.136Y-0.1F6000S0
G1 X2.5F12000S0
G1 X5.908F6000S20
G1 X2.5F12000S0
G1 X-0.028Y-0.1F6000S0
G1 X-2.5F12000S0
G1 X-5.735F6000S20
G1 X-2.5F12000S0
G1 X0.146Y-0.1F6000S0
G1 X2.5F12000S0
G1 X5.535F6000S20
G1 X2.5F12000S0
G1 X-0.1Y-0.1F6000S0
G1 X-2.5F12000S0
G1 X-5.284F6000S20
G1 X-2.5F12000S0
G1 X0.17Y-0.1F6000S0
G1 X2.5F12000S0
G1 X4.943F6000S20
G1 X2.5F12000S0
G1 X-0.171Y-0.1F6000S0
G1 X-2.5F12000S0
G1 X-4.602F6000S20
G1 X-2.5F12000S0
G1 X0.187Y-0.1F6000S0
G1 X2.5F12000S0
G1 X4.244F6000S20
G1 X2.5F12000S0
G1 X-0.21Y-0.1F6000S0
G1 X-2.5F12000S0
G1 X-3.825F6000S20
G1 X-2.5F12000S0
G1 X0.214Y-0.1F6000S0
G1 X2.5F12000S0
G1 X3.384F6000S20
G1 X2.5F12000S0
G1 X-0.24Y-0.1F6000S0
G1 X-2.5F12000S0
G1 X-2.868F6000S20
G1 X-2.5F12000S0
G1 X0.313Y-0.1F6000S0
G1 X2.5F12000S0
G1 X2.219F6000S20
G1 X2.5F12000S0
G1 X-0.464Y-0.1F6000S0
G1 X-2.5F12000S0
G1 X-1.323F6000S20
G1 X-2.5F12000S0
G1 X-21.938Y-22.2S0
G1 X2.5S0
G1 X0.288F6000S20
G1 X2.5F12000S0
G1 X0.057Y-0.1F6000S0
G1 X-2.5F12000S0
G1 X-1.114F6000S20
G1 X-2.5F12000S0
G1 X-0.552Y-0.1F6000S0
G1 X2.5F12000S0
G1 X1.723F6000S20
G1 X2.5F12000S0
G1 X0.058Y-0.1F6000S0
G1 X-2.5F12000S0
G1 X-2.256F6000S20
G1 X-2.5F12000S0
G1 X-0.415Y-0.1F6000S0
G1 X2.5F12000S0
G1 X2.728F6000S20
G1 X2.5F12000S0
G1 X0.058Y-0.1F6000S0
G1 X-2.5F12000S0
G1 X-3.169F6000S20
G1 X-2.5F12000S0
G1 X-0.332Y-0.1F6000S0
G1 X2.5F12000S0
G1 X3.558F6000S20
G1 X2.5F12000S0
G1 X0.057Y-0.1F6000S0
G1 X-2.5F12000S0
G1 X-3.948F6000S20
G1 X-2.5F12000S0
G1 X-0.294Y-0.1F6000S0
G1 X2.5F12000S0
G1 X4.3F6000S20
G1 X2.5F12000S0
G1 X0.052Y-0.1F6000S0
G1 X-2.5F12000S0
G1 X-4.63F6000S20
G1 X-2.5F12000S0
G1 X-0.278Y-0.1F6000S0
G1 X2.5F12000S0
G1 X4.961F6000S20
G1 X2.5F12000S0
G1 X0.052Y-0.1F6000S0
G1 X-2.5F12000S0
G1 X-5.269F6000S20
G1 X-2.5F12000S0
G1 X-0.239Y-0.1F6000S0
G1 X2.5F12000S0
G1 X5.561F6000S20
G1 X2.5F12000S0
G1 X0.052Y-0.1F6000S0
G1 X-2.5F12000S0
G1 X-5.852F6000S20
G1 X-2.5F12000S0
G1 X-0.239Y-0.1F6000S0
G1 X2.5F12000S0
G1 X6.144F6000S20
G1 X2.5F12000S0
G1 X0.052Y-0.1F6000S0
G1 X-2.5F12000S0
G1 X-6.408F6000S20
G1 X-2.5F12000S0
G1 X-0.21Y-0.1F6000S0
G1 X2.5F12000S0
G1 X6.671F6000S20
G1 X2.5F12000S0
G1 X0.049Y-0.1F6000S0
G1 X-2.5F12000S0
G1 X-6.93F6000S20
G1 X-2.5F12000S0
G1 X-0.21Y-0.1F6000S0
G1 X2.5F12000S0
G1 X7.186F6000S20
G1 X2.5F12000S0
G1 X0.047Y-0.1F6000S0
G1 X-2.5F12000S0
G1 X-7.425F6000S20
G1 X-2.5F12000S0
G1 X-0.187Y-0.1F6000S0
G1 X2.5F12000S0
G1 X7.658F6000S20
G1 X2.5F12000S0
G1 X0.047Y-0.1F6000S0
G1 X-2.5F12000S0
G1 X-7.892F6000S20
G1 X-2.5F12000S0
G1 X-0.188Y-0.1F6000S0
G1 X2.5F12000S0
G1 X8.126F6000S20
G1 X2.5F12000S0
G1 X0.047Y-0.1F6000S0
G1 X-2.5F12000S0
G1 X-8.355F6000S20
G1 X-2.5F12000S0
G1 X-0.169Y-0.1F6000S0
G1 X2.5F12000S0
G1 X8.57F6000S20
G1 X2.5F12000S0
G1 X0.046Y-0.1F6000S0
G1 X-2.5F12000S0
G1 X-8.785F6000S20
G1 X-2.5F12000S0
G1 X-0.17Y-0.1F6000S0
G1 X2.5F12000S0
G1 X8.995F6000S20
G1 X2.5F12000S0
G1 X0.039Y-0.1F6000S0
G1 X-2.5F12000S0
G1 X-9.203F6000S20
G1 X-2.5F12000S0
G1 X-0.165Y-0.1F6000S0
G1 X2.5F12000S0
G1 X9.407F6000S20
G1 X2.5F12000S0
G1 X0.04Y-0.1F6000S0
G1 X-2.5F12000S0
G1 X-9.602F6000S20
G1 X-2.5F12000S0
G1 X-0.154Y-0.1F6000S0
G1 X2.5F12000S0
G1 X9.795F6000S20
G1 X2.5F12000S0
G1 X0.039Y-0.1F6000S0
G1 X-2.5F12000S0
G1 X-9.989F6000S20
G1 X-2.5F12000S0
G1 X-0.155Y-0.1F6000S0
G1 X2.5F12000S0
G1 X10.183F6000S20
G1 X2.5F12000S0
G1 X0.04Y-0.1F6000S0
G1 X-2.5F12000S0
G1 X-10.377F6000S20
G1 X-2.5F12000S0
G1 X-0.144Y-0.1F6000S0
G1 X2.5F12000S0
G1 X10.557F6000S20
G1 X2.5F12000S0
G1 X0.031Y-0.1F6000S0
G1 X-2.5F12000S0
G1 X-10.73F6000S20
G1 X-2.5F12000S0
G1 X-0.143Y-0.1F6000S0
G1 X2.5F12000S0
G1 X10.904F6000S20
G1 X2.5F12000S0
G1 X0.031Y-0.1F6000S0
G1 X-2.5F12000S0
G1 X-11.077F6000S20
G1 X-2.5F12000S0
G1 X-0.143Y-0.1F6000S0
G1 X2.5F12000S0
G1 X11.251F6000S20
G1 X2.5F12000S0
G1 X0.031Y-0.1F6000S0
G1 X-2.5F12000S0
G1 X-11.423F6000S20
G1 X-2.5F12000S0
G1 X-0.132Y-0.1F6000S0
G1 X2.5F12000S0
G1 X11.587F6000S20
G1 X2.5F12000S0
G1 X0.031Y-0.1F6000S0
G1 X-2.5F12000S0
G1 X-11.751F6000S20
G1 X-2.5F12000S0
G1 X-0.132Y-0.1F6000S0
G1 X2.5F12000S0
G1 X11.914F6000S20
G1 X2.5F12000S0
G1 X0.027Y-0.1F6000S0
G1 X-2.5F12000S0
G1 X-12.073F6000S20
G1 X-2.5F12000S0
G1 X-0.133Y-0.1F6000S0
G1 X2.5F12000S0
G1 X12.228F6000S20
G1 X2.5F12000S0
G1 X0.022Y-0.1F6000S0
G1 X-2.5F12000S0
G1 X-12.382F6000S20
G1 X-2.5F12000S0
G1 X-0.124Y-0.1F6000S0
G1 X2.5F12000S0
G1 X12.528F6000S20
G1 X2.5F12000S0
G1 X0.022Y-0.1F6000S0
G1 X-2.5F12000S0
G1 X-12.674F6000S20
G1 X-2.5F12000S0
G1 X-0.123Y-0.1F6000S0
G1 X2.5F12000S0
G1 X12.819F6000S20
G1 X2.5F12000S0
G1 X0.022Y-0.1F6000S0
G1 X-2.5F12000S0
G1 X-12.965F6000S20
G1 X-2.5F12000S0
G1 X-0.124Y-0.1F6000S0
G1 X2.5F12000S0
G1 X13.111F6000S20
G1 X2.5F12000S0
G1 X0.022Y-0.1F6000S0
G1 X-2.5F12000S0
G1 X-13.256F6000S20
G1 X-2.5F12000S0
G1 X-0.121Y-0.1F6000S0
G1 X2.5F12000S0
G1 X13.395F6000S20
G1 X2.5F12000S0
G1 X0.012Y-0.1F6000S0
G1 X-2.5F12000S0
G1 X-13.523F6000S20
G1 X-2.5F12000S0
G1 X-0.116Y-0.1F6000S0
G1 X2.5F12000S0
G1 X13.651F6000S20
G1 X3.969F12000S0
G1 X2.882F6000S20
G1 X2.5F12000S0
G1 X0.689Y-0.1F6000S0
G1 X-2.5F12000S0
G1 X-4.141F6000S20
G1 X-3.386F12000S0
G1 X-13.78F6000S20
G1 X-2.5F12000S0
G1 X-0.117Y-0.1F6000S0
G1 X2.5F12000S0
G1 X13.909F6000S20
G1 X2.956F12000S0
G1 X5.202F6000S20
G1 X2.5F12000S0
G1 X0.49Y-0.1F6000S0
G1 X-2.5F12000S0
G1 X-6.025F6000S20
G1 X-2.611F12000S0
G1 X-14.037F6000S20
G1 X-2.5F12000S0
G1 X-0.116Y-0.1F6000S0
G1 X2.5F12000S0
G1 X14.165F6000S20
G1 X2.287F12000S0
G1 X6.827F6000S20
G1 X2.5F12000S0
G1 X-0.537Y-0.1F6000S0
G1 X-2.5F12000S0
G1 X-6.536F6000S20
G1 X-2.029F12000S0
G1 X-14.29F6000S20
G1 X-2.5F12000S0
G1 X-0.11Y-0.1F6000S0
G1 X2.5F12000S0
G1 X14.413F6000S20
G1 X1.771F12000S0
G1 X5.603F6000S20
G1 X2.5F12000S0
G1 X-0.883Y-0.1F6000S0
G1 X-2.5F12000S0
G1 X-4.933F6000S20
G1 X-1.547F12000S0
G1 X-14.533F6000S20
G1 X-2.5F12000S0
G1 X-0.11Y-0.1F6000S0
G1 X2.5F12000S0
G1 X14.645F6000S20
G1 X1.346F12000S0
G1 X4.529F6000S20
G1 X2.5F12000S0
G1 X-0.471Y-0.1F6000S0
G1 X-2.5F12000S0
G1 X-4.256F6000S20
G1 X-1.146F12000S0
G1 X-14.757F6000S20
G1 X-2.5F12000S0
G1 X-0.11Y-0.1F6000S0
G1 X2.5F12000S0
G1 X14.869F6000S20
G1 X0.975S0
G1 X4.04S20
G1 X2.5F12000S0
G1 X-0.305Y-0.1F6000S0
G1 X-2.5F12000S0
G1 X-3.9F6000S20
G1 X-0.809S0
G1 X-14.979S20
G1 X-2.5F12000S0
G1 X-0.109Y-0.1F6000S0
G1 X2.5F12000S0
G1 X15.09F6000S20
G1 X0.642S0
G1 X3.788S20
G1 X2.5F12000S0
G1 X-0.234Y-0.1F6000S0
G1 X-2.5F12000S0
G1 X-3.706F6000S20
G1 X-0.488S0
G1 X-15.196S20
G1 X-2.5F12000S0
G1 X-0.104Y-0.1F6000S0
G1 X2.5F12000S0
G1 X15.302F6000S20
G1 X0.347S0
G1 X3.631S20
G1 X2.5F12000S0
G1 X-0.184Y-0.1F6000S0
G1 X-2.5F12000S0
G1 X-3.585F6000S20
G1 X-0.207S0
G1 X-15.408S20
G1 X-2.5F12000S0
G1 X-0.104Y-0.1F6000S0
G1 X2.5F12000S0
G1 X15.514F6000S20
G1 X0.066S0
G1 X3.543S20
G1 X2.5F12000S0
G1 X-0.145Y-0.1F6000S0
G1 X-2.5F12000S0
G1 X-19.082F6000S20
G1 X-2.5F12000S0
G1 X-0.104Y-0.1F6000S0
G1 X2.5F12000S0
G1 X19.042F6000S20
G1 X2.5F12000S0
G1 X-0.134Y-0.1F6000S0
G1 X-2.5F12000S0
G1 X-19.012F6000S20
G1 X-2.5F12000S0
G1 X0.352Y-0.1F6000S0
G1 X2.5F12000S0
G1 X18.546F6000S20
G1 X2.5F12000S0
G1 X-0.113Y-0.1F6000S0
G1 X-2.5F12000S0
G1 X-17.883F6000S20
G1 X-2.5F12000S0
G1 X0.55Y-0.1F6000S0
G1 X2.5F12000S0
G1 X17.222F6000S20
G1 X2.5F12000S0
G1 X-0.088Y-0.1F6000S0
G1 X-2.5F12000S0
G1 X-16.582F6000S20
G1 X-2.5F12000S0
G1 X0.598Y-0.1F6000S0
G1 X2.5F12000S0
G1 X15.896F6000S20
G1 X2.5F12000S0
G1 X-0.088Y-0.1F6000S0
G1 X-2.5F12000S0
G1 X-15.209F6000S20
G1 X-2.5F12000S0
G1 X0.598Y-0.1F6000S0
G1 X2.5F12000S0
G1 X14.53F6000S20
G1 X2.5F12000S0
G1 X-0.068Y-0.1F6000S0
G1 X-2.5F12000S0
G1 X-13.808F6000S20
G1 X-2.5F12000S0
G1 X0.686Y-0.1F6000S0
G1 X2.5F12000S0
G1 X13.054F6000S20
G1 X2.5F12000S0
G1 X-0.068Y-0.1F6000S0
G1 X-2.5F12000S0
G1 X-12.3F6000S20
G1 X-2.5F12000S0
G1 X0.778Y-0.1F6000S0
G1 X2.5F12000S0
G1 X11.455F6000S20
G1 X2.5F12000S0
G1 X-0.051Y-0.1F6000S0
G1 X-2.5F12000S0
G1 X-10.562F6000S20
G1 X-2.5F12000S0
G1 X0.847Y-0.1F6000S0
G1 X2.5F12000S0
G1 X9.664F6000S20
G1 X2.5F12000S0
G1 X-0.051Y-0.1F6000S0
G1 X-2.5F12000S0
G1 X-8.568F6000S20
G1 X-2.5F12000S0
G1 X1.29Y-0.1S0
G1 X2.5S0
G1 X7.227F6000S20
G1 X2.5F12000S0
G1 X-0.409Y-0.1F6000S0
G1 X-2.5F12000S0
G1 X-4.932F6000S20
G1 X-2.5F12000S0
G1 X17.669Y-12.1S0
G1 X2.5S0
G1 X0.175F6000S20
G1 X2.5F12000S0
G1 X0.028Y-0.1F6000S0
G1 X-2.5F12000S0
G1 X-0.36F6000S20
G1 X-2.5F12000S0
G1 X-0.158Y-0.1F6000S0
G1 X2.5F12000S0
G1 X0.545F6000S20
G1 X2.5F12000S0
G1 X0.028Y-0.1F6000S0
G1 X-2.5F12000S0
G1 X-0.73F6000S20
G1 X-2.5F12000S0
G1 X-0.157Y-0.1F6000S0
G1 X2.5F12000S0
G1 X0.915F6000S20
G1 X2.5F12000S0
G1 X0.028Y-0.1F6000S0
G1 X-2.5F12000S0
G1 X-1.101F6000S20
G1 X-2.5F12000S0
G1 X-0.157Y-0.1F6000S0
G1 X2.5F12000S0
G1 X1.285F6000S20
G1 X2.5F12000S0
G1 X0.028Y-0.1F6000S0
G1 X-2.5F12000S0
G1 X-1.471F6000S20
G1 X-2.5F12000S0
G1 X-0.17Y-0.1F6000S0
G1 X2.5F12000S0
G1 X1.669F6000S20
G1 X2.5F12000S0
G1 X0.028Y-0.1F6000S0
G1 X-2.5F12000S0
G1 X-1.868F6000S20
G1 X-2.5F12000S0
G1 X-0.17Y-0.1F6000S0
G1 X2.5F12000S0
G1 X2.066F6000S20
G1 X2.5F12000S0
G1 X0.027Y-0.1F6000S0
G1 X-2.5F12000S0
G1 X-2.264F6000S20
G1 X-2.5F12000S0
G1 X-0.171Y-0.1F6000S0
G1 X2.5F12000S0
G1 X2.463F6000S20
G1 X2.5F12000S0
G1 X0.028Y-0.1F6000S0
G1 X-2.5F12000S0
G1 X-2.662F6000S20
G1 X-2.5F12000S0
G1 X-0.17Y-0.1F6000S0
G1 X2.5F12000S0
G1 X2.86F6000S20
G1 X2.5F12000S0
G1 X0.027Y-0.1F6000S0
G1 X-2.5F12000S0
G1 X-3.068F6000S20
G1 X-2.5F12000S0
G1 X-0.186Y-0.1F6000S0
G1 X2.5F12000S0
G1 X3.282F6000S20
G1 X2.5F12000S0
G1 X0.028Y-0.1F6000S0
G1 X-2.5F12000S0
G1 X-3.496F6000S20
G1 X-2.5F12000S0
G1 X-0.186Y-0.1F6000S0
G1 X2.5F12000S0
G1 X3.71F6000S20
G1 X2.5F12000S0
G1 X0.028Y-0.1F6000S0
G1 X-2.5F12000S0
G1 X-3.924F6000S20
G1 X-2.5F12000S0
G1 X-0.186Y-0.1F6000S0
G1 X2.5F12000S0
G1 X4.137F6000S20
G1 X2.5F12000S0
G1 X0.028Y-0.1F6000S0
G1 X-2.5F12000S0
G1 X-4.351F6000S20
G1 X-2.5F12000S0
G1 X-0.203Y-0.1F6000S0
G1 X2.5F12000S0
G1 X4.582F6000S20
G1 X2.5F12000S0
G1 X0.028Y-0.1F6000S0
G1 X-2.5F12000S0
G1 X-4.814F6000S20
G1 X-35.215F12000S0
G1 X-0.133F6000S20
G1 X-2.5F12000S0
G1 X0.165Y-0.1F6000S0
G1 X2.5F12000S0
G1 X0.278F6000S20
G1 X34.701F12000S0
G1 X5.045F6000S20
G1 X2.5F12000S0
G1 X0.028Y-0.1F6000S0
G1 X-2.5F12000S0
G1 X-5.277F6000S20
G1 X-34.186F12000S0
G1 X-0.424F6000S20
G1 X-2.5F12000S0
G1 X0.164Y-0.1F6000S0
G1 X2.5F12000S0
G1 X0.57F6000S20
G1 X33.672F12000S0
G1 X5.509F6000S20
G1 X2.5F12000S0
G1 X0.028Y-0.1F6000S0
G1 X-2.5F12000S0
G1 X-5.741F6000S20
G1 X-33.157F12000S0
G1 X-0.716F6000S20
G1 X-2.5F12000S0
G1 X0.165Y-0.1F6000S0
G1 X2.5F12000S0
G1 X0.862F6000S20
G1 X32.626F12000S0
G1 X5.989F6000S20
G1 X2.5F12000S0
G1 X0.027Y-0.1F6000S0
G1 X-2.5F12000S0
G1 X-6.241F6000S20
G1 X-32.091F12000S0
G1 X-1.007F6000S20
G1 X-2.5F12000S0
G1 X0.165Y-0.1F6000S0
G1 X2.5F12000S0
G1 X1.153F6000S20
G1 X31.554F12000S0
G1 X6.495F6000S20
G1 X2.5F12000S0
G1 X0.028Y-0.1F6000S0
G1 X-2.5F12000S0
G1 X-6.748F6000S20
G1 X-30.991F12000S0
G1 X-1.326F6000S20
G1 X-2.5F12000S0
G1 X0.165Y-0.1F6000S0
G1 X2.5F12000S0
G1 X1.499F6000S20
G1 X30.428F12000S0
G1 X7.001F6000S20
G1 X2.5F12000S0
G1 X0.027Y-0.1F6000S0
G1 X-2.5F12000S0
G1 X-7.259F6000S20
G1 X-29.858F12000S0
G1 X-1.673F6000S20
G1 X-2.5F12000S0
G1 X0.165Y-0.1F6000S0
G1 X2.5F12000S0
G1 X1.846F6000S20
G1 X29.27F12000S0
G1 X7.537F6000S20
G1 X2.5F12000S0
G1 X0.028Y-0.1F6000S0
G1 X-2.5F12000S0
G1 X-7.816F6000S20
G1 X-28.681F12000S0
G1 X-2.018F6000S20
G1 X-2.5F12000S0
G1 X0.166Y-0.1F6000S0
G1 X2.5F12000S0
G1 X2.191F6000S20
G1 X28.092F12000S0
G1 X8.094F6000S20
G1 X2.5F12000S0
G1 X0.028Y-0.1F6000S0
G1 X-2.5F12000S0
G1 X-8.372F6000S20
G1 X-27.504F12000S0
G1 X-2.362F6000S20
G1 X-2.5F12000S0
G1 X0.166Y-0.1F6000S0
G1 X2.5F12000S0
G1 X2.564F6000S20
G1 X26.877F12000S0
G1 X8.658F6000S20
G1 X2.5F12000S0
G1 X0.028Y-0.1F6000S0
G1 X-2.5F12000S0
G1 X-8.967F6000S20
G1 X-26.217F12000S0
G1 X-2.777F6000S20
G1 X-2.5F12000S0
G1 X0.166Y-0.1F6000S0
G1 X2.5F12000S0
G1 X2.99F6000S20
G1 X25.557F12000S0
G1 X9.276F6000S20
G1 X2.5F12000S0
G1 X0.028Y-0.1F6000S0
G1 X-2.5F12000S0
G1 X-9.585F6000S20
G1 X-24.897F12000S0
G1 X-3.203F6000S20
G1 X-2.5F12000S0
G1 X0.166Y-0.1F6000S0
G1 X2.5F12000S0
G1 X3.416F6000S20
G1 X24.238F12000S0
G1 X9.892F6000S20
G1 X2.5F12000S0
G1 X0.028Y-0.1F6000S0
G1 X-2.5F12000S0
G1 X-10.233F6000S20
G1 X-23.546F12000S0
G1 X-3.628F6000S20
G1 X-2.5F12000S0
G1 X0.166Y-0.1F6000S0
G1 X2.5F12000S0
G1 X3.855F6000S20
G1 X22.834F12000S0
G1 X10.58F6000S20
G1 X2.5F12000S0
G1 X0.028Y-0.1F6000S0
G1 X-2.5F12000S0
G1 X-10.927F6000S20
G1 X-22.074F12000S0
G1 X-4.13F6000S20
G1 X-2.5F12000S0
G1 X0.17Y-0.1F6000S0
G1 X2.5F12000S0
G1 X4.401F6000S20
G1 X21.314F12000S0
G1 X11.274F6000S20
G1 X2.5F12000S0
G1 X0.027Y-0.1F6000S0
G1 X-2.5F12000S0
G1 X-11.664F6000S20
G1 X-20.511F12000S0
G1 X-4.668F6000S20
G1 X-2.5F12000S0
G1 X0.173Y-0.1F6000S0
G1 X2.5F12000S0
G1 X4.936F6000S20
G1 X19.703F12000S0
G1 X12.059F6000S20
G1 X2.5F12000S0
G1 X0.028Y-0.1F6000S0
G1 X-2.5F12000S0
G1 X-12.454F6000S20
G1 X-18.895F12000S0
G1 X-5.204F6000S20
G1 X-2.5F12000S0
G1 X0.173Y-0.1F6000S0
G1 X2.5F12000S0
G1 X5.516F6000S20
G1 X18.009F12000S0
G1 X12.883F6000S20
G1 X2.5F12000S0
G1 X0.027Y-0.1F6000S0
G1 X-2.5F12000S0
G1 X-13.34F6000S20
G1 X-17.069F12000S0
G1 X-5.853F6000S20
G1 X-2.5F12000S0
G1 X0.173Y-0.1F6000S0
G1 X2.5F12000S0
G1 X6.205F6000S20
G1 X16.113F12000S0
G1 X13.799F6000S20
G1 X2.5F12000S0
G1 X0.028Y-0.1F6000S0
G1 X-2.5F12000S0
G1 X-14.312F6000S20
G1 X-15.052F12000S0
G1 X-6.608F6000S20
G1 X-2.5F12000S0
G1 X0.173Y-0.1F6000S0
G1 X2.5F12000S0
G1 X7.018F6000S20
G1 X13.952F12000S0
G1 X14.646F6000S20
G1 X2.5F12000S0
G1 X-0.213Y-0.1F6000S0
G1 X-2.5F12000S0
G1 X-14.979F6000S20
G1 X-12.739F12000S0
G1 X-7.512F6000S20
G1 X-2.5F12000S0
G1 X0.173Y-0.1F6000S0
G1 X2.5F12000S0
G1 X8.036F6000S20
G1 X11.402F12000S0
G1 X15.407F6000S20
G1 X2.5F12000S0
G1 X-0.213Y-0.1F6000S0
G1 X-2.5F12000S0
G1 X-15.892F6000S20
G1 X-9.905F12000S0
G1 X-8.657F6000S20
G1 X-2.5F12000S0
G1 X0.186Y-0.1F6000S0
G1 X2.5F12000S0
G1 X9.415F6000S20
G1 X8.127F12000S0
G1 X16.511F6000S20
G1 X2.5F12000S0
G1 X-0.22Y-0.1F6000S0
G1 X-2.5F12000S0
G1 X-17.404F6000S20
G1 X-5.822F12000S0
G1 X-10.421F6000S20
G1 X-2.5F12000S0
G1 X0.186Y-0.1F6000S0
G1 X2.5F12000S0
G1 X12.474F6000S20
G1 X1.383F12000S0
G1 X19.383F6000S20
G1 X2.5F12000S0
G1 X-0.221Y-0.1F6000S0
G1 X-2.5F12000S0
G1 X-32.833F6000S20
G1 X-2.5F12000S0
G1 X0.186Y-0.1F6000S0
G1 X2.5F12000S0
G1 X32.426F6000S20
G1 X2.5F12000S0
G1 X-0.229Y-0.1F6000S0
G1 X-2.5F12000S0
G1 X-32.01F6000S20
G1 X-2.5F12000S0
G1 X0.186Y-0.1F6000S0
G1 X2.5F12000S0
G1 X31.594F6000S20
G1 X2.5F12000S0
G1 X-0.23Y-0.1F6000S0
G1 X-2.5F12000S0
G1 X-31.178F6000S20
G1 X-2.5F12000S0
G1 X0.186Y-0.1F6000S0
G1 X2.5F12000S0
G1 X30.762F6000S20
G1 X2.5F12000S0
G1 X-0.237Y-0.1F6000S0
G1 X-2.5F12000S0
G1 X-30.339F6000S20
G1 X-2.5F12000S0
G1 X0.197Y-0.1F6000S0
G1 X2.5F12000S0
G1 X29.902F6000S20
G1 X2.5F12000S0
G1 X-0.24Y-0.1F6000S0
G1 X-2.5F12000S0
G1 X-29.46F6000S20
G1 X-2.5F12000S0
G1 X0.201Y-0.1F6000S0
G1 X2.5F12000S0
G1 X29.019F6000S20
G1 X2.5F12000S0
G1 X-0.249Y-0.1F6000S0
G1 X-2.5F12000S0
G1 X-28.569F6000S20
G1 X-2.5F12000S0
G1 X0.202Y-0.1F6000S0
G1 X2.5F12000S0
G1 X28.116F6000S20
G1 X2.5F12000S0
G1 X-0.251Y-0.1F6000S0
G1 X-2.5F12000S0
G1 X-27.655F6000S20
G1 X-2.5F12000S0
G1 X0.216Y-0.1F6000S0
G1 X2.5F12000S0
G1 X27.185F6000S20
G1 X2.5F12000S0
G1 X-0.263Y-0.1F6000S0
G1 X-2.5F12000S0
G1 X-26.707F6000S20
G1 X-2.5F12000S0
G1 X0.215Y-0.1F6000S0
G1 X2.5F12000S0
G1 X26.228F6000S20
G1 X2.5F12000S0
G1 X-0.263Y-0.1F6000S0
G1 X-2.5F12000S0
G1 X-25.749F6000S20
G1 X-2.5F12000S0
G1 X0.23Y-0.1F6000S0
G1 X2.5F12000S0
G1 X25.245F6000S20
G1 X2.5F12000S0
G1 X-0.278Y-0.1F6000S0
G1 X-2.5F12000S0
G1 X-24.734F6000S20
G1 X-2.5F12000S0
G1 X0.233Y-0.1F6000S0
G1 X2.5F12000S0
G1 X24.224F6000S20
G1 X2.5F12000S0
G1 X-0.286Y-0.1F6000S0
G1 X-2.5F12000S0
G1 X-23.706F6000S20
G1 X-2.5F12000S0
G1 X0.241Y-0.1F6000S0
G1 X2.5F12000S0
G1 X23.172F6000S20
G1 X2.5F12000S0
G1 X-0.294Y-0.1F6000S0
G1 X-2.5F12000S0
G1 X-22.623F6000S20
G1 X-2.5F12000S0
G1 X0.255Y-0.1F6000S0
G1 X2.5F12000S0
G1 X22.065F6000S20
G1 X2.5F12000S0
G1 X-0.311Y-0.1F6000S0
G1 X-2.5F12000S0
G1 X-21.499F6000S20
G1 X-2.5F12000S0
G1 X0.26Y-0.1F6000S0
G1 X2.5F12000S0
G1 X20.927F6000S20
G1 X2.5F12000S0
G1 X-0.327Y-0.1F6000S0
G1 X-2.5F12000S0
G1 X-20.316F6000S20
G1 X-2.5F12000S0
G1 X0.284Y-0.1F6000S0
G1 X2.5F12000S0
G1 X19.7F6000S20
G1 X2.5F12000S0
G1 X-0.338Y-0.1F6000S0
G1 X-2.5F12000S0
G1 X-19.078F6000S20
G1 X-2.5F12000S0
G1 X0.296Y-0.1F6000S0
G1 X2.5F12000S0
G1 X18.426F6000S20
G1 X2.5F12000S0
G1 X-0.355Y-0.1F6000S0
G1 X-2.5F12000S0
G1 X-17.748F6000S20
G1 X-2.5F12000S0
G1 X0.322Y-0.1F6000S0
G1 X2.5F12000S0
G1 X17.044F6000S20
G1 X2.5F12000S0
G1 X-0.383Y-0.1F6000S0
G1 X-2.5F12000S0
G1 X-16.339F6000S20
G1 X-2.5F12000S0
G1 X0.367Y-0.1F6000S0
G1 X2.5F12000S0
G1 X15.547F6000S20
G1 X2.5F12000S0
G1 X-0.436Y-0.1F6000S0
G1 X-2.5F12000S0
G1 X-14.737F6000S20
G1 X-2.5F12000S0
G1 X0.375Y-0.1F6000S0
G1 X2.5F12000S0
G1 X13.926F6000S20
G1 X2.5F12000S0
G1 X-0.449Y-0.1F6000S0
G1 X-2.5F12000S0
G1 X-13.044F6000S20
G1 X-2.5F12000S0
G1 X0.45Y-0.1F6000S0
G1 X2.5F12000S0
G1 X12.058F6000S20
G1 X2.5F12000S0
G1 X-0.535Y-0.1F6000S0
G1 X-2.5F12000S0
G1 X-11.054F6000S20
G1 X-2.5F12000S0
G1 X0.566Y-0.1F6000S0
G1 X2.5F12000S0
G1 X9.912F6000S20
G1 X2.5F12000S0
G1 X-0.698Y-0.1F6000S0
G1 X-2.5F12000S0
G1 X-8.643F6000S20
G1 X-2.5F12000S0
G1 X0.765Y-0.1F6000S0
G1 X2.5F12000S0
G1 X7.145F6000S20
G1 X2.5F12000S0
G1 X-1.012Y-0.1S0
G1 X-2.5S0
G1 X-5.199F6000S20
G1 X-2.5F12000S0
G1 X1.649Y-0.1S0
G1 X2.5S0
G1 X1.958F6000S20
G1 X2.5F12000S0
M9
G1 S0
M5
; return to starting pos
G0 X-115.096Y-44.367
M2
