; LightBurn 1.4.00
; GRBL device profile, current position
; Bounds: X0 Y0 to X127 Y46.5
G00 G17 G40 G21 G54
G91
M4
; Cut @ 50 mm/sec, 100% power
M8
G0 X0Y0
; Layer C02
G1 Y30S100F3000
G1 X30
G1 Y-30
G1 X-30
G0 X77Y0.5
G1 Y46
G1 X50
G1 Y-46
G1 X-50
M9
G1 S0
M5
; return to starting pos
G0 X-77Y-0.5
M2
